%
(2D Contour2)
(T1  D=1.5 CR=0 - ZMIN=-1.6 - flat end mill)
G90
G17
G21
G28 G91 Z0
G90

(2D Contour2)
M9
T1 M6
S5000 M3
G54
M7
G0 X-41.2 Y-0.15
Z15
Z5
G1 Z2 F333.3
Z0.15
X-41.193 Z0.104
X-41.171 Z0.062
X-41.138 Z0.029
X-41.096 Z0.007
X-41.05 Z0
X-40.9 F1000
X-40.854 Y-0.143
X-40.812 Y-0.121
X-40.779 Y-0.088
X-40.757 Y-0.046
X-40.75 Y0
G2 X40.75 I40.75 J0
X-40.75 I-40.75 J0
G1 X-40.757 Y0.046
X-40.779 Y0.088
X-40.812 Y0.121
X-40.854 Y0.143
X-40.9 Y0.15
X-41.05
X-41.096 Z0.007
X-41.138 Z0.029
X-41.171 Z0.062
X-41.193 Z0.104
X-41.2 Z0.15
G0 Z15
Y-0.15
Z5
G1 Z2 F333.3
Z-1.45
X-41.193 Z-1.496
X-41.171 Z-1.538
X-41.138 Z-1.571
X-41.096 Z-1.593
X-41.05 Z-1.6
X-40.9 F1000
X-40.854 Y-0.143
X-40.812 Y-0.121
X-40.779 Y-0.088
X-40.757 Y-0.046
X-40.75 Y0
G2 X40.75 I40.75 J0
X-40.75 I-40.75 J0
G1 X-40.757 Y0.046
X-40.779 Y0.088
X-40.812 Y0.121
X-40.854 Y0.143
X-40.9 Y0.15
X-41.05
X-41.096 Z-1.593
X-41.138 Z-1.571
X-41.171 Z-1.538
X-41.193 Z-1.496
X-41.2 Z-1.45
G0 Z15
M9
G28 G91 Z0
G90
G28 G91 X0 Y0
G90
M30
%
