( Generated by Carbide Copper )
( Material Size )
( X= 152.400, Y= 101.600, Z= 1.580 )
()
G17
G21
G54
G90
M05
(  )
T502 M06
( Contour )
M03 S10000
G0  X13.590 Y56.311
G0  Z3.000
G01 F400 Z0
G01 F400 Z-0.100
G01F400X13.590 Y54.230
X15.671 Y54.230
X15.671 Y56.311
X13.590 Y56.311
G0 Z3.000
G0  X24.703 Y55.674
G0  Z3.000
G01 F400 Z0
G01 F400 Z-0.100
G01F400X24.630 Y55.659
X24.562 Y55.629
X24.502 Y55.585
X24.452 Y55.530
X24.415 Y55.466
X24.392 Y55.395
X24.385 Y55.324
X24.436 Y50.137
X24.443 Y50.066
X24.466 Y49.995
X24.503 Y49.931
X24.553 Y49.876
X24.613 Y49.832
X24.681 Y49.802
X24.753 Y49.787
X32.144 Y49.787
X32.965 Y48.207
X32.910 Y48.146
X32.803 Y47.962
X32.738 Y47.760
X32.716 Y47.549
X32.738 Y47.338
X32.803 Y47.136
X32.910 Y46.952
X33.052 Y46.794
X33.224 Y46.669
X33.417 Y46.583
X33.625 Y46.539
X33.837 Y46.539
X34.045 Y46.583
X34.239 Y46.669
X34.411 Y46.794
X34.553 Y46.952
X34.659 Y47.136
X34.724 Y47.338
X34.747 Y47.549
X34.724 Y47.760
X34.659 Y47.962
X34.553 Y48.146
X34.411 Y48.303
X34.239 Y48.428
X34.045 Y48.515
X33.837 Y48.559
X33.625 Y48.559
X33.585 Y48.550
X32.682 Y50.288
X32.647 Y50.348
X32.597 Y50.404
X32.537 Y50.447
X32.469 Y50.477
X32.397 Y50.493
X25.142 Y50.493
X25.098 Y54.968
X55.257 Y54.968
X62.536 Y52.428
X62.536 Y45.082
X62.543 Y45.011
X62.566 Y44.941
X62.603 Y44.876
X62.653 Y44.821
X62.713 Y44.778
X62.781 Y44.747
X62.853 Y44.732
X72.670 Y44.732
X72.670 Y30.488
X65.231 Y34.463
X65.245 Y34.595
X65.222 Y34.810
X65.156 Y35.015
X65.048 Y35.203
X64.903 Y35.363
X64.728 Y35.490
X64.531 Y35.578
X64.319 Y35.623
X64.103 Y35.623
X63.892 Y35.578
X63.694 Y35.490
X63.519 Y35.363
X63.375 Y35.203
X63.267 Y35.015
X63.200 Y34.810
X63.177 Y34.595
X63.200 Y34.380
X63.267 Y34.174
X63.375 Y33.987
X63.519 Y33.827
X63.694 Y33.700
X63.892 Y33.612
X64.103 Y33.567
X64.319 Y33.567
X64.531 Y33.612
X64.728 Y33.700
X64.903 Y33.827
X64.907 Y33.831
X72.851 Y29.587
X72.915 Y29.558
X72.988 Y29.543
X73.062 Y29.543
X73.135 Y29.558
X73.203 Y29.588
X73.263 Y29.632
X73.312 Y29.687
X73.349 Y29.751
X73.372 Y29.822
X73.380 Y29.893
X73.380 Y45.088
X73.372 Y45.159
X73.349 Y45.229
X73.312 Y45.294
X73.263 Y45.349
X73.203 Y45.393
X73.135 Y45.423
X73.062 Y45.438
X63.245 Y45.438
X63.245 Y52.682
X63.238 Y52.753
X63.215 Y52.824
X63.178 Y52.888
X63.128 Y52.944
X63.068 Y52.987
X63.003 Y53.016
X55.429 Y55.659
X55.358 Y55.674
X24.703 Y55.674
G0 Z3.000
G0  X14.522 Y53.766
G0  Z3.000
G01 F400 Z0
G01 F400 Z-0.100
G01F400X14.309 Y53.720
X14.110 Y53.632
X13.934 Y53.504
X13.788 Y53.342
X13.680 Y53.154
X13.612 Y52.947
X13.590 Y52.730
X13.612 Y52.514
X13.680 Y52.307
X13.788 Y52.119
X13.934 Y51.957
X14.110 Y51.829
X14.309 Y51.741
X14.522 Y51.695
X14.739 Y51.695
X14.952 Y51.741
X15.151 Y51.829
X15.327 Y51.957
X15.473 Y52.119
X15.581 Y52.307
X15.595 Y52.351
X19.330 Y52.328
X19.330 Y45.082
X19.338 Y45.011
X19.361 Y44.941
X19.398 Y44.876
X19.447 Y44.821
X19.508 Y44.778
X19.575 Y44.747
X19.648 Y44.732
X35.013 Y44.732
X35.086 Y44.747
X35.153 Y44.778
X35.213 Y44.821
X35.263 Y44.876
X35.298 Y44.937
X36.126 Y46.547
X36.165 Y46.539
X36.342 Y46.539
X37.168 Y44.937
X37.203 Y44.876
X37.253 Y44.821
X37.313 Y44.778
X37.381 Y44.747
X37.449 Y44.733
X52.394 Y42.234
X53.483 Y37.993
X53.359 Y37.903
X53.215 Y37.742
X53.107 Y37.555
X53.040 Y37.350
X53.017 Y37.135
X53.040 Y36.920
X53.107 Y36.714
X53.215 Y36.527
X53.359 Y36.367
X53.534 Y36.239
X53.732 Y36.152
X53.943 Y36.107
X54.159 Y36.107
X54.371 Y36.152
X54.568 Y36.239
X54.743 Y36.367
X54.888 Y36.527
X54.996 Y36.714
X55.062 Y36.920
X55.085 Y37.135
X55.062 Y37.350
X54.996 Y37.555
X54.888 Y37.742
X54.743 Y37.903
X54.568 Y38.030
X54.371 Y38.118
X54.195 Y38.156
X53.026 Y42.622
X53.004 Y42.689
X52.967 Y42.754
X52.917 Y42.809
X52.857 Y42.852
X52.789 Y42.883
X52.721 Y42.897
X37.726 Y45.405
X36.996 Y46.844
X37.093 Y46.952
X37.199 Y47.136
X37.265 Y47.338
X37.287 Y47.549
X37.265 Y47.760
X37.199 Y47.962
X37.093 Y48.146
X36.951 Y48.303
X36.779 Y48.428
X36.585 Y48.515
X36.377 Y48.559
X36.165 Y48.559
X35.957 Y48.515
X35.764 Y48.428
X35.592 Y48.303
X35.450 Y48.146
X35.343 Y47.962
X35.278 Y47.760
X35.256 Y47.549
X35.278 Y47.338
X35.343 Y47.136
X35.450 Y46.952
X35.506 Y46.890
X34.759 Y45.438
X20.040 Y45.438
X20.040 Y52.682
X20.032 Y52.753
X20.009 Y52.824
X19.972 Y52.888
X19.923 Y52.944
X19.863 Y52.987
X19.795 Y53.017
X19.722 Y53.033
X15.613 Y53.057
X15.581 Y53.154
X15.473 Y53.342
X15.327 Y53.504
X15.151 Y53.632
X14.952 Y53.720
X14.739 Y53.766
X14.522 Y53.766
G0 Z3.000
G0  X14.522 Y51.226
G0  Z3.000
G01 F400 Z0
G01 F400 Z-0.100
G01F400X14.309 Y51.180
X14.110 Y51.092
X13.934 Y50.964
X13.788 Y50.802
X13.680 Y50.614
X13.612 Y50.407
X13.590 Y50.190
X13.612 Y49.974
X13.680 Y49.767
X13.788 Y49.579
X13.934 Y49.417
X14.110 Y49.289
X14.274 Y49.216
X14.276 Y42.542
X14.283 Y42.471
X14.306 Y42.401
X14.343 Y42.336
X14.393 Y42.281
X14.453 Y42.238
X14.521 Y42.207
X14.591 Y42.192
X42.511 Y39.677
X47.398 Y39.677
X48.242 Y37.862
X48.135 Y37.742
X48.027 Y37.555
X47.960 Y37.350
X47.937 Y37.135
X47.960 Y36.920
X48.027 Y36.714
X48.135 Y36.527
X48.279 Y36.367
X48.454 Y36.239
X48.652 Y36.152
X48.863 Y36.107
X49.079 Y36.107
X49.291 Y36.152
X49.488 Y36.239
X49.663 Y36.367
X49.808 Y36.527
X49.916 Y36.714
X49.982 Y36.920
X50.005 Y37.135
X49.982 Y37.350
X49.916 Y37.555
X49.808 Y37.742
X49.663 Y37.903
X49.488 Y38.030
X49.291 Y38.118
X49.079 Y38.163
X48.900 Y38.163
X47.948 Y40.178
X47.912 Y40.239
X47.863 Y40.294
X47.803 Y40.338
X47.735 Y40.368
X47.662 Y40.384
X42.579 Y40.384
X14.985 Y42.869
X14.985 Y49.216
X15.151 Y49.289
X15.327 Y49.417
X15.473 Y49.579
X15.581 Y49.767
X15.649 Y49.974
X15.671 Y50.190
X15.649 Y50.407
X15.581 Y50.614
X15.473 Y50.802
X15.327 Y50.964
X15.151 Y51.092
X14.952 Y51.180
X14.739 Y51.226
X14.522 Y51.226
G0 Z3.000
G0  X43.785 Y48.559
G0  Z3.000
G01 F400 Z0
G01 F400 Z-0.100
G01F400X43.577 Y48.515
X43.384 Y48.428
X43.212 Y48.303
X43.070 Y48.146
X42.964 Y47.962
X42.898 Y47.760
X42.876 Y47.549
X42.898 Y47.338
X42.964 Y47.136
X43.070 Y46.952
X43.212 Y46.794
X43.384 Y46.669
X43.577 Y46.583
X43.785 Y46.539
X43.997 Y46.539
X44.205 Y46.583
X44.399 Y46.669
X44.571 Y46.794
X44.713 Y46.952
X44.819 Y47.136
X44.885 Y47.338
X44.907 Y47.549
X44.885 Y47.760
X44.819 Y47.962
X44.713 Y48.146
X44.571 Y48.303
X44.399 Y48.428
X44.205 Y48.515
X43.997 Y48.559
X43.785 Y48.559
G0 Z3.000
G0  X41.245 Y48.559
G0  Z3.000
G01 F400 Z0
G01 F400 Z-0.100
G01F400X41.037 Y48.515
X40.843 Y48.428
X40.672 Y48.303
X40.530 Y48.146
X40.424 Y47.962
X40.358 Y47.760
X40.336 Y47.549
X40.358 Y47.338
X40.424 Y47.136
X40.530 Y46.952
X40.672 Y46.794
X40.843 Y46.669
X41.037 Y46.583
X41.245 Y46.539
X41.457 Y46.539
X41.665 Y46.583
X41.859 Y46.669
X42.031 Y46.794
X42.173 Y46.952
X42.279 Y47.136
X42.345 Y47.338
X42.367 Y47.549
X42.345 Y47.760
X42.279 Y47.962
X42.173 Y48.146
X42.031 Y48.303
X41.859 Y48.428
X41.665 Y48.515
X41.457 Y48.559
X41.245 Y48.559
G0 Z3.000
G0  X48.865 Y48.559
G0  Z3.000
G01 F400 Z0
G01 F400 Z-0.100
G01F400X48.657 Y48.515
X48.464 Y48.428
X48.292 Y48.303
X48.150 Y48.146
X48.044 Y47.962
X47.978 Y47.760
X47.956 Y47.549
X47.978 Y47.338
X48.044 Y47.136
X48.150 Y46.952
X48.292 Y46.794
X48.464 Y46.669
X48.657 Y46.583
X48.865 Y46.539
X49.077 Y46.539
X49.285 Y46.583
X49.479 Y46.669
X49.651 Y46.794
X49.793 Y46.952
X49.899 Y47.136
X49.965 Y47.338
X49.987 Y47.549
X49.965 Y47.760
X49.899 Y47.962
X49.793 Y48.146
X49.651 Y48.303
X49.479 Y48.428
X49.285 Y48.515
X49.077 Y48.559
X48.865 Y48.559
G0 Z3.000
G0  X46.325 Y48.559
G0  Z3.000
G01 F400 Z0
G01 F400 Z-0.100
G01F400X46.117 Y48.515
X45.924 Y48.428
X45.752 Y48.303
X45.610 Y48.146
X45.504 Y47.962
X45.438 Y47.760
X45.416 Y47.549
X45.438 Y47.338
X45.504 Y47.136
X45.610 Y46.952
X45.752 Y46.794
X45.924 Y46.669
X46.117 Y46.583
X46.325 Y46.539
X46.537 Y46.539
X46.745 Y46.583
X46.939 Y46.669
X47.111 Y46.794
X47.253 Y46.952
X47.359 Y47.136
X47.425 Y47.338
X47.447 Y47.549
X47.425 Y47.760
X47.359 Y47.962
X47.253 Y48.146
X47.111 Y48.303
X46.939 Y48.428
X46.745 Y48.515
X46.537 Y48.559
X46.325 Y48.559
G0 Z3.000
G0  X38.705 Y48.559
G0  Z3.000
G01 F400 Z0
G01 F400 Z-0.100
G01F400X38.497 Y48.515
X38.303 Y48.428
X38.132 Y48.303
X37.990 Y48.146
X37.884 Y47.962
X37.818 Y47.760
X37.796 Y47.549
X37.818 Y47.338
X37.884 Y47.136
X37.990 Y46.952
X38.132 Y46.794
X38.303 Y46.669
X38.497 Y46.583
X38.705 Y46.539
X38.917 Y46.539
X39.125 Y46.583
X39.319 Y46.669
X39.491 Y46.794
X39.633 Y46.952
X39.739 Y47.136
X39.805 Y47.338
X39.827 Y47.549
X39.805 Y47.760
X39.739 Y47.962
X39.633 Y48.146
X39.491 Y48.303
X39.319 Y48.428
X39.125 Y48.515
X38.917 Y48.559
X38.705 Y48.559
G0 Z3.000
G0  X31.085 Y48.559
G0  Z3.000
G01 F400 Z0
G01 F400 Z-0.100
G01F400X30.877 Y48.515
X30.684 Y48.428
X30.512 Y48.303
X30.370 Y48.146
X30.264 Y47.962
X30.198 Y47.760
X30.176 Y47.549
X30.198 Y47.338
X30.264 Y47.136
X30.370 Y46.952
X30.512 Y46.794
X30.684 Y46.669
X30.877 Y46.583
X31.085 Y46.539
X31.297 Y46.539
X31.505 Y46.583
X31.699 Y46.669
X31.871 Y46.794
X32.013 Y46.952
X32.119 Y47.136
X32.184 Y47.338
X32.207 Y47.549
X32.184 Y47.760
X32.119 Y47.962
X32.013 Y48.146
X31.871 Y48.303
X31.699 Y48.428
X31.505 Y48.515
X31.297 Y48.559
X31.085 Y48.559
G0 Z3.000
G0  X6.999 Y40.384
G0  Z3.000
G01 F400 Z0
G01 F400 Z-0.100
G01F400X6.926 Y40.368
X6.858 Y40.338
X6.798 Y40.294
X6.748 Y40.239
X6.711 Y40.175
X6.689 Y40.104
X6.681 Y40.033
X6.681 Y27.379
X6.689 Y27.307
X6.711 Y27.237
X6.748 Y27.173
X6.798 Y27.117
X6.858 Y27.074
X6.926 Y27.044
X6.998 Y27.028
X7.634 Y27.012
X7.634 Y25.464
X9.240 Y25.464
X9.352 Y25.441
X9.749 Y25.441
X9.861 Y25.464
X11.442 Y25.464
X11.442 Y27.247
X11.451 Y27.330
X11.442 Y27.414
X11.442 Y29.247
X7.634 Y29.247
X7.634 Y27.720
X7.391 Y27.726
X7.391 Y39.677
X14.403 Y39.677
X15.240 Y37.879
X15.115 Y37.743
X15.007 Y37.555
X14.940 Y37.350
X14.917 Y37.135
X14.940 Y36.920
X15.007 Y36.714
X15.115 Y36.527
X15.259 Y36.367
X15.434 Y36.239
X15.632 Y36.152
X15.843 Y36.107
X16.059 Y36.107
X16.271 Y36.152
X16.468 Y36.239
X16.643 Y36.367
X16.788 Y36.527
X16.896 Y36.714
X16.962 Y36.920
X16.985 Y37.135
X16.962 Y37.350
X16.896 Y37.555
X16.788 Y37.742
X16.643 Y37.903
X16.468 Y38.030
X16.271 Y38.118
X16.059 Y38.163
X15.890 Y38.163
X14.953 Y40.178
X14.918 Y40.239
X14.868 Y40.294
X14.808 Y40.338
X14.740 Y40.368
X14.668 Y40.384
X6.999 Y40.384
G0 Z3.000
G0  X43.783 Y38.214
G0  Z3.000
G01 F400 Z0
G01 F400 Z-0.100
G01F400X43.572 Y38.169
X43.374 Y38.081
X43.199 Y37.954
X43.055 Y37.793
X42.947 Y37.606
X42.880 Y37.401
X42.857 Y37.186
X42.880 Y36.971
X42.947 Y36.765
X43.055 Y36.578
X43.199 Y36.417
X43.374 Y36.290
X43.572 Y36.202
X43.783 Y36.157
X43.999 Y36.157
X44.211 Y36.202
X44.408 Y36.290
X44.583 Y36.417
X44.728 Y36.578
X44.836 Y36.765
X44.902 Y36.971
X44.925 Y37.186
X44.902 Y37.401
X44.836 Y37.606
X44.728 Y37.793
X44.583 Y37.954
X44.408 Y38.081
X44.211 Y38.169
X43.999 Y38.214
X43.783 Y38.214
G0 Z3.000
G0  X46.323 Y38.163
G0  Z3.000
G01 F400 Z0
G01 F400 Z-0.100
G01F400X46.112 Y38.118
X45.914 Y38.030
X45.739 Y37.903
X45.595 Y37.742
X45.487 Y37.555
X45.420 Y37.350
X45.397 Y37.135
X45.420 Y36.920
X45.487 Y36.714
X45.595 Y36.527
X45.739 Y36.367
X45.914 Y36.239
X46.112 Y36.152
X46.323 Y36.107
X46.539 Y36.107
X46.751 Y36.152
X46.948 Y36.239
X47.123 Y36.367
X47.268 Y36.527
X47.376 Y36.714
X47.442 Y36.920
X47.465 Y37.135
X47.442 Y37.350
X47.376 Y37.555
X47.268 Y37.742
X47.123 Y37.903
X46.948 Y38.030
X46.751 Y38.118
X46.539 Y38.163
X46.323 Y38.163
G0 Z3.000
G0  X51.403 Y38.163
G0  Z3.000
G01 F400 Z0
G01 F400 Z-0.100
G01F400X51.192 Y38.118
X50.994 Y38.030
X50.819 Y37.903
X50.675 Y37.742
X50.567 Y37.555
X50.500 Y37.350
X50.477 Y37.135
X50.500 Y36.920
X50.567 Y36.714
X50.675 Y36.527
X50.819 Y36.367
X50.994 Y36.239
X51.192 Y36.152
X51.403 Y36.107
X51.619 Y36.107
X51.831 Y36.152
X52.028 Y36.239
X52.203 Y36.367
X52.348 Y36.527
X52.456 Y36.714
X52.522 Y36.920
X52.545 Y37.135
X52.522 Y37.350
X52.456 Y37.555
X52.348 Y37.742
X52.203 Y37.903
X52.028 Y38.030
X51.831 Y38.118
X51.619 Y38.163
X51.403 Y38.163
G0 Z3.000
G0  X36.163 Y38.163
G0  Z3.000
G01 F400 Z0
G01 F400 Z-0.100
G01F400X35.952 Y38.118
X35.754 Y38.030
X35.579 Y37.903
X35.435 Y37.742
X35.327 Y37.555
X35.260 Y37.350
X35.237 Y37.135
X35.260 Y36.920
X35.327 Y36.714
X35.435 Y36.527
X35.579 Y36.367
X35.754 Y36.239
X35.952 Y36.152
X36.163 Y36.107
X36.379 Y36.107
X36.591 Y36.152
X36.788 Y36.239
X36.963 Y36.367
X37.108 Y36.527
X37.216 Y36.714
X37.282 Y36.920
X37.305 Y37.135
X37.282 Y37.350
X37.216 Y37.555
X37.108 Y37.742
X36.963 Y37.903
X36.788 Y38.030
X36.591 Y38.118
X36.379 Y38.163
X36.163 Y38.163
G0 Z3.000
G0  X33.623 Y38.163
G0  Z3.000
G01 F400 Z0
G01 F400 Z-0.100
G01F400X33.412 Y38.118
X33.214 Y38.030
X33.039 Y37.903
X32.895 Y37.742
X32.787 Y37.555
X32.720 Y37.350
X32.697 Y37.135
X32.720 Y36.920
X32.787 Y36.714
X32.895 Y36.527
X33.039 Y36.367
X33.214 Y36.239
X33.412 Y36.152
X33.623 Y36.107
X33.839 Y36.107
X34.051 Y36.152
X34.248 Y36.239
X34.423 Y36.367
X34.568 Y36.527
X34.676 Y36.714
X34.742 Y36.920
X34.765 Y37.135
X34.742 Y37.350
X34.676 Y37.555
X34.568 Y37.742
X34.423 Y37.903
X34.248 Y38.030
X34.051 Y38.118
X33.839 Y38.163
X33.623 Y38.163
G0 Z3.000
G0  X41.243 Y38.163
G0  Z3.000
G01 F400 Z0
G01 F400 Z-0.100
G01F400X41.032 Y38.118
X40.834 Y38.030
X40.659 Y37.903
X40.515 Y37.742
X40.407 Y37.555
X40.340 Y37.350
X40.317 Y37.135
X40.340 Y36.920
X40.407 Y36.714
X40.515 Y36.527
X40.659 Y36.367
X40.834 Y36.239
X41.032 Y36.152
X41.243 Y36.107
X41.459 Y36.107
X41.671 Y36.152
X41.868 Y36.239
X42.043 Y36.367
X42.188 Y36.527
X42.296 Y36.714
X42.362 Y36.920
X42.385 Y37.135
X42.362 Y37.350
X42.296 Y37.555
X42.188 Y37.742
X42.043 Y37.903
X41.868 Y38.030
X41.671 Y38.118
X41.459 Y38.163
X41.243 Y38.163
G0 Z3.000
G0  X38.703 Y38.163
G0  Z3.000
G01 F400 Z0
G01 F400 Z-0.100
G01F400X38.492 Y38.118
X38.294 Y38.030
X38.119 Y37.903
X37.975 Y37.742
X37.867 Y37.555
X37.800 Y37.350
X37.777 Y37.135
X37.800 Y36.920
X37.867 Y36.714
X37.975 Y36.527
X38.119 Y36.367
X38.294 Y36.239
X38.492 Y36.152
X38.703 Y36.107
X38.919 Y36.107
X39.131 Y36.152
X39.328 Y36.239
X39.503 Y36.367
X39.648 Y36.527
X39.756 Y36.714
X39.822 Y36.920
X39.845 Y37.135
X39.822 Y37.350
X39.756 Y37.555
X39.648 Y37.742
X39.503 Y37.903
X39.328 Y38.030
X39.131 Y38.118
X38.919 Y38.163
X38.703 Y38.163
G0 Z3.000
G0  X64.129 Y38.163
G0  Z3.000
G01 F400 Z0
G01 F400 Z-0.100
G01F400X63.917 Y38.118
X63.720 Y38.030
X63.545 Y37.903
X63.400 Y37.742
X63.292 Y37.555
X63.225 Y37.350
X63.203 Y37.135
X63.225 Y36.920
X63.292 Y36.714
X63.400 Y36.527
X63.545 Y36.367
X63.720 Y36.239
X63.917 Y36.152
X64.129 Y36.107
X64.345 Y36.107
X64.556 Y36.152
X64.754 Y36.239
X64.928 Y36.367
X65.073 Y36.527
X65.181 Y36.714
X65.248 Y36.920
X65.270 Y37.135
X65.248 Y37.350
X65.181 Y37.555
X65.073 Y37.742
X64.928 Y37.903
X64.754 Y38.030
X64.556 Y38.118
X64.345 Y38.163
X64.129 Y38.163
G0 Z3.000
G0  X56.483 Y38.163
G0  Z3.000
G01 F400 Z0
G01 F400 Z-0.100
G01F400X56.272 Y38.118
X56.074 Y38.030
X55.899 Y37.903
X55.755 Y37.742
X55.647 Y37.555
X55.580 Y37.350
X55.557 Y37.135
X55.580 Y36.920
X55.647 Y36.714
X55.755 Y36.527
X55.899 Y36.367
X56.074 Y36.239
X56.272 Y36.152
X56.483 Y36.107
X56.699 Y36.107
X56.911 Y36.152
X57.108 Y36.239
X57.283 Y36.367
X57.428 Y36.527
X57.536 Y36.714
X57.602 Y36.920
X57.625 Y37.135
X57.602 Y37.350
X57.536 Y37.555
X57.428 Y37.742
X57.283 Y37.903
X57.108 Y38.030
X56.911 Y38.118
X56.699 Y38.163
X56.483 Y38.163
G0 Z3.000
G0  X61.563 Y38.163
G0  Z3.000
G01 F400 Z0
G01 F400 Z-0.100
G01F400X61.352 Y38.118
X61.154 Y38.030
X60.979 Y37.903
X60.835 Y37.742
X60.727 Y37.555
X60.660 Y37.350
X60.637 Y37.135
X60.660 Y36.920
X60.727 Y36.714
X60.835 Y36.527
X60.979 Y36.367
X61.154 Y36.239
X61.352 Y36.152
X61.563 Y36.107
X61.779 Y36.107
X61.991 Y36.152
X62.188 Y36.239
X62.363 Y36.367
X62.508 Y36.527
X62.616 Y36.714
X62.682 Y36.920
X62.705 Y37.135
X62.682 Y37.350
X62.616 Y37.555
X62.508 Y37.742
X62.363 Y37.903
X62.188 Y38.030
X61.991 Y38.118
X61.779 Y38.163
X61.563 Y38.163
G0 Z3.000
G0  X59.023 Y38.163
G0  Z3.000
G01 F400 Z0
G01 F400 Z-0.100
G01F400X58.812 Y38.118
X58.614 Y38.030
X58.439 Y37.903
X58.295 Y37.742
X58.187 Y37.555
X58.120 Y37.350
X58.097 Y37.135
X58.120 Y36.920
X58.187 Y36.714
X58.295 Y36.527
X58.439 Y36.367
X58.614 Y36.239
X58.812 Y36.152
X59.023 Y36.107
X59.239 Y36.107
X59.451 Y36.152
X59.648 Y36.239
X59.823 Y36.367
X59.968 Y36.527
X60.076 Y36.714
X60.142 Y36.920
X60.165 Y37.135
X60.142 Y37.350
X60.076 Y37.555
X59.968 Y37.742
X59.823 Y37.903
X59.648 Y38.030
X59.451 Y38.118
X59.239 Y38.163
X59.023 Y38.163
G0 Z3.000
G0  X26.003 Y38.163
G0  Z3.000
G01 F400 Z0
G01 F400 Z-0.100
G01F400X25.792 Y38.118
X25.594 Y38.030
X25.419 Y37.903
X25.275 Y37.742
X25.167 Y37.555
X25.100 Y37.350
X25.077 Y37.135
X25.100 Y36.920
X25.167 Y36.714
X25.275 Y36.527
X25.419 Y36.367
X25.594 Y36.239
X25.792 Y36.152
X26.003 Y36.107
X26.219 Y36.107
X26.431 Y36.152
X26.628 Y36.239
X26.803 Y36.367
X26.948 Y36.527
X27.056 Y36.714
X27.122 Y36.920
X27.145 Y37.135
X27.122 Y37.350
X27.056 Y37.555
X26.948 Y37.742
X26.803 Y37.903
X26.628 Y38.030
X26.431 Y38.118
X26.219 Y38.163
X26.003 Y38.163
G0 Z3.000
G0  X23.489 Y38.163
G0  Z3.000
G01 F400 Z0
G01 F400 Z-0.100
G01F400X23.277 Y38.118
X23.080 Y38.030
X22.905 Y37.903
X22.760 Y37.742
X22.652 Y37.555
X22.585 Y37.350
X22.563 Y37.135
X22.585 Y36.920
X22.652 Y36.714
X22.760 Y36.527
X22.905 Y36.367
X23.080 Y36.239
X23.277 Y36.152
X23.489 Y36.107
X23.705 Y36.107
X23.916 Y36.152
X24.114 Y36.239
X24.288 Y36.367
X24.433 Y36.527
X24.541 Y36.714
X24.608 Y36.920
X24.630 Y37.135
X24.608 Y37.350
X24.541 Y37.555
X24.433 Y37.742
X24.288 Y37.903
X24.114 Y38.030
X23.916 Y38.118
X23.705 Y38.163
X23.489 Y38.163
G0 Z3.000
G0  X31.083 Y38.163
G0  Z3.000
G01 F400 Z0
G01 F400 Z-0.100
G01F400X30.872 Y38.118
X30.674 Y38.030
X30.499 Y37.903
X30.355 Y37.742
X30.247 Y37.555
X30.180 Y37.350
X30.157 Y37.135
X30.180 Y36.920
X30.247 Y36.714
X30.355 Y36.527
X30.499 Y36.367
X30.674 Y36.239
X30.872 Y36.152
X31.083 Y36.107
X31.299 Y36.107
X31.511 Y36.152
X31.708 Y36.239
X31.883 Y36.367
X32.028 Y36.527
X32.136 Y36.714
X32.202 Y36.920
X32.225 Y37.135
X32.202 Y37.350
X32.136 Y37.555
X32.028 Y37.742
X31.883 Y37.903
X31.708 Y38.030
X31.511 Y38.118
X31.299 Y38.163
X31.083 Y38.163
G0 Z3.000
G0  X28.543 Y38.163
G0  Z3.000
G01 F400 Z0
G01 F400 Z-0.100
G01F400X28.332 Y38.118
X28.134 Y38.030
X27.959 Y37.903
X27.815 Y37.742
X27.707 Y37.555
X27.640 Y37.350
X27.617 Y37.135
X27.640 Y36.920
X27.707 Y36.714
X27.815 Y36.527
X27.959 Y36.367
X28.134 Y36.239
X28.332 Y36.152
X28.543 Y36.107
X28.759 Y36.107
X28.971 Y36.152
X29.168 Y36.239
X29.343 Y36.367
X29.488 Y36.527
X29.596 Y36.714
X29.662 Y36.920
X29.685 Y37.135
X29.662 Y37.350
X29.596 Y37.555
X29.488 Y37.742
X29.343 Y37.903
X29.168 Y38.030
X28.971 Y38.118
X28.759 Y38.163
X28.543 Y38.163
G0 Z3.000
G0  X20.948 Y38.163
G0  Z3.000
G01 F400 Z0
G01 F400 Z-0.100
G01F400X20.737 Y38.118
X20.540 Y38.030
X20.365 Y37.903
X20.220 Y37.742
X20.112 Y37.555
X20.045 Y37.350
X20.023 Y37.135
X20.045 Y36.920
X20.112 Y36.714
X20.220 Y36.527
X20.365 Y36.367
X20.540 Y36.239
X20.737 Y36.152
X20.948 Y36.107
X21.165 Y36.107
X21.376 Y36.152
X21.574 Y36.239
X21.748 Y36.367
X21.893 Y36.527
X22.001 Y36.714
X22.068 Y36.920
X22.090 Y37.135
X22.068 Y37.350
X22.001 Y37.555
X21.893 Y37.742
X21.748 Y37.903
X21.574 Y38.030
X21.376 Y38.118
X21.165 Y38.163
X20.948 Y38.163
G0 Z3.000
G0  X18.383 Y38.163
G0  Z3.000
G01 F400 Z0
G01 F400 Z-0.100
G01F400X18.172 Y38.118
X17.974 Y38.030
X17.799 Y37.903
X17.655 Y37.742
X17.547 Y37.555
X17.480 Y37.350
X17.457 Y37.135
X17.480 Y36.920
X17.547 Y36.714
X17.655 Y36.527
X17.799 Y36.367
X17.974 Y36.239
X18.172 Y36.152
X18.383 Y36.107
X18.599 Y36.107
X18.811 Y36.152
X19.008 Y36.239
X19.183 Y36.367
X19.328 Y36.527
X19.436 Y36.714
X19.502 Y36.920
X19.525 Y37.135
X19.502 Y37.350
X19.436 Y37.555
X19.328 Y37.742
X19.183 Y37.903
X19.008 Y38.030
X18.811 Y38.118
X18.599 Y38.163
X18.383 Y38.163
G0 Z3.000
G0  X59.023 Y35.623
G0  Z3.000
G01 F400 Z0
G01 F400 Z-0.100
G01F400X58.812 Y35.578
X58.614 Y35.490
X58.439 Y35.363
X58.295 Y35.203
X58.187 Y35.015
X58.120 Y34.810
X58.097 Y34.595
X58.120 Y34.380
X58.187 Y34.174
X58.295 Y33.987
X58.439 Y33.827
X58.614 Y33.700
X58.812 Y33.612
X59.023 Y33.567
X59.239 Y33.567
X59.451 Y33.612
X59.648 Y33.700
X59.823 Y33.827
X59.968 Y33.987
X60.076 Y34.174
X60.142 Y34.380
X60.165 Y34.595
X60.142 Y34.810
X60.076 Y35.015
X59.968 Y35.203
X59.823 Y35.363
X59.648 Y35.490
X59.451 Y35.578
X59.239 Y35.623
X59.023 Y35.623
G0 Z3.000
G0  X61.563 Y35.623
G0  Z3.000
G01 F400 Z0
G01 F400 Z-0.100
G01F400X61.352 Y35.578
X61.154 Y35.490
X60.979 Y35.363
X60.835 Y35.203
X60.727 Y35.015
X60.660 Y34.810
X60.637 Y34.595
X60.660 Y34.380
X60.727 Y34.174
X60.835 Y33.987
X60.979 Y33.827
X61.154 Y33.700
X61.352 Y33.612
X61.563 Y33.567
X61.779 Y33.567
X61.991 Y33.612
X62.188 Y33.700
X62.363 Y33.827
X62.508 Y33.987
X62.616 Y34.174
X62.682 Y34.380
X62.705 Y34.595
X62.682 Y34.810
X62.616 Y35.015
X62.508 Y35.203
X62.363 Y35.363
X62.188 Y35.490
X61.991 Y35.578
X61.779 Y35.623
X61.563 Y35.623
G0 Z3.000
G0  X43.783 Y35.623
G0  Z3.000
G01 F400 Z0
G01 F400 Z-0.100
G01F400X43.572 Y35.578
X43.374 Y35.490
X43.199 Y35.363
X43.055 Y35.203
X42.947 Y35.015
X42.880 Y34.810
X42.857 Y34.595
X42.880 Y34.380
X42.947 Y34.174
X43.055 Y33.987
X43.199 Y33.827
X43.374 Y33.700
X43.572 Y33.612
X43.783 Y33.567
X43.999 Y33.567
X44.211 Y33.612
X44.408 Y33.700
X44.583 Y33.827
X44.728 Y33.987
X44.836 Y34.174
X44.902 Y34.380
X44.925 Y34.595
X44.902 Y34.810
X44.836 Y35.015
X44.728 Y35.203
X44.583 Y35.363
X44.408 Y35.490
X44.211 Y35.578
X43.999 Y35.623
X43.783 Y35.623
G0 Z3.000
G0  X46.323 Y35.623
G0  Z3.000
G01 F400 Z0
G01 F400 Z-0.100
G01F400X46.112 Y35.578
X45.914 Y35.490
X45.739 Y35.363
X45.595 Y35.203
X45.487 Y35.015
X45.420 Y34.810
X45.397 Y34.595
X45.420 Y34.380
X45.487 Y34.174
X45.595 Y33.987
X45.739 Y33.827
X45.914 Y33.700
X46.112 Y33.612
X46.323 Y33.567
X46.539 Y33.567
X46.751 Y33.612
X46.948 Y33.700
X47.123 Y33.827
X47.268 Y33.987
X47.376 Y34.174
X47.442 Y34.380
X47.465 Y34.595
X47.442 Y34.810
X47.376 Y35.015
X47.268 Y35.203
X47.123 Y35.363
X46.948 Y35.490
X46.751 Y35.578
X46.539 Y35.623
X46.323 Y35.623
G0 Z3.000
G0  X38.703 Y35.623
G0  Z3.000
G01 F400 Z0
G01 F400 Z-0.100
G01F400X38.492 Y35.578
X38.294 Y35.490
X38.119 Y35.363
X37.975 Y35.203
X37.867 Y35.015
X37.800 Y34.810
X37.777 Y34.595
X37.800 Y34.380
X37.867 Y34.174
X37.975 Y33.987
X38.119 Y33.827
X38.294 Y33.700
X38.492 Y33.612
X38.703 Y33.567
X38.919 Y33.567
X39.131 Y33.612
X39.328 Y33.700
X39.503 Y33.827
X39.648 Y33.987
X39.756 Y34.174
X39.822 Y34.380
X39.845 Y34.595
X39.822 Y34.810
X39.756 Y35.015
X39.648 Y35.203
X39.503 Y35.363
X39.328 Y35.490
X39.131 Y35.578
X38.919 Y35.623
X38.703 Y35.623
G0 Z3.000
G0  X41.269 Y35.623
G0  Z3.000
G01 F400 Z0
G01 F400 Z-0.100
G01F400X41.057 Y35.578
X40.860 Y35.490
X40.685 Y35.363
X40.540 Y35.203
X40.432 Y35.015
X40.365 Y34.810
X40.343 Y34.595
X40.365 Y34.380
X40.432 Y34.174
X40.540 Y33.987
X40.685 Y33.827
X40.860 Y33.700
X41.057 Y33.612
X41.269 Y33.567
X41.485 Y33.567
X41.696 Y33.612
X41.894 Y33.700
X42.068 Y33.827
X42.213 Y33.987
X42.321 Y34.174
X42.388 Y34.380
X42.410 Y34.595
X42.388 Y34.810
X42.321 Y35.015
X42.213 Y35.203
X42.068 Y35.363
X41.894 Y35.490
X41.696 Y35.578
X41.485 Y35.623
X41.269 Y35.623
G0 Z3.000
G0  X53.943 Y35.623
G0  Z3.000
G01 F400 Z0
G01 F400 Z-0.100
G01F400X53.732 Y35.578
X53.534 Y35.490
X53.359 Y35.363
X53.215 Y35.203
X53.107 Y35.015
X53.040 Y34.810
X53.017 Y34.595
X53.040 Y34.380
X53.107 Y34.174
X53.215 Y33.987
X53.359 Y33.827
X53.534 Y33.700
X53.732 Y33.612
X53.943 Y33.567
X54.159 Y33.567
X54.371 Y33.612
X54.568 Y33.700
X54.743 Y33.827
X54.888 Y33.987
X54.996 Y34.174
X55.062 Y34.380
X55.085 Y34.595
X55.062 Y34.810
X54.996 Y35.015
X54.888 Y35.203
X54.743 Y35.363
X54.568 Y35.490
X54.371 Y35.578
X54.159 Y35.623
X53.943 Y35.623
G0 Z3.000
G0  X56.483 Y35.623
G0  Z3.000
G01 F400 Z0
G01 F400 Z-0.100
G01F400X56.272 Y35.578
X56.074 Y35.490
X55.899 Y35.363
X55.755 Y35.203
X55.647 Y35.015
X55.580 Y34.810
X55.557 Y34.595
X55.580 Y34.380
X55.647 Y34.174
X55.755 Y33.987
X55.899 Y33.827
X56.074 Y33.700
X56.272 Y33.612
X56.483 Y33.567
X56.699 Y33.567
X56.911 Y33.612
X57.108 Y33.700
X57.283 Y33.827
X57.428 Y33.987
X57.536 Y34.174
X57.602 Y34.380
X57.625 Y34.595
X57.602 Y34.810
X57.536 Y35.015
X57.428 Y35.203
X57.283 Y35.363
X57.108 Y35.490
X56.911 Y35.578
X56.699 Y35.623
X56.483 Y35.623
G0 Z3.000
G0  X48.863 Y35.623
G0  Z3.000
G01 F400 Z0
G01 F400 Z-0.100
G01F400X48.652 Y35.578
X48.454 Y35.490
X48.279 Y35.363
X48.135 Y35.203
X48.027 Y35.015
X47.960 Y34.810
X47.937 Y34.595
X47.960 Y34.380
X48.027 Y34.174
X48.135 Y33.987
X48.279 Y33.827
X48.304 Y33.808
X48.146 Y33.738
X47.867 Y33.535
X47.636 Y33.279
X47.464 Y32.980
X47.357 Y32.652
X47.321 Y32.309
X47.357 Y31.966
X47.464 Y31.638
X47.636 Y31.339
X47.867 Y31.082
X48.146 Y30.880
X48.461 Y30.739
X48.799 Y30.668
X49.144 Y30.668
X49.481 Y30.739
X49.796 Y30.880
X50.075 Y31.082
X50.306 Y31.339
X50.479 Y31.638
X50.585 Y31.966
X50.622 Y32.309
X50.585 Y32.652
X50.479 Y32.980
X50.306 Y33.279
X50.075 Y33.535
X49.796 Y33.738
X49.638 Y33.808
X49.663 Y33.827
X49.808 Y33.987
X49.916 Y34.174
X49.982 Y34.380
X50.005 Y34.595
X49.982 Y34.810
X49.916 Y35.015
X49.808 Y35.203
X49.663 Y35.363
X49.488 Y35.490
X49.291 Y35.578
X49.079 Y35.623
X48.863 Y35.623
G0 Z3.000
G0  X51.403 Y35.623
G0  Z3.000
G01 F400 Z0
G01 F400 Z-0.100
G01F400X51.192 Y35.578
X50.994 Y35.490
X50.819 Y35.363
X50.675 Y35.203
X50.567 Y35.015
X50.500 Y34.810
X50.477 Y34.595
X50.500 Y34.380
X50.567 Y34.174
X50.675 Y33.987
X50.819 Y33.827
X50.994 Y33.700
X51.192 Y33.612
X51.403 Y33.567
X51.619 Y33.567
X51.831 Y33.612
X52.028 Y33.700
X52.203 Y33.827
X52.348 Y33.987
X52.456 Y34.174
X52.522 Y34.380
X52.545 Y34.595
X52.522 Y34.810
X52.456 Y35.015
X52.348 Y35.203
X52.203 Y35.363
X52.028 Y35.490
X51.831 Y35.578
X51.619 Y35.623
X51.403 Y35.623
G0 Z3.000
G0  X23.489 Y35.623
G0  Z3.000
G01 F400 Z0
G01 F400 Z-0.100
G01F400X23.277 Y35.578
X23.080 Y35.490
X22.905 Y35.363
X22.760 Y35.203
X22.652 Y35.015
X22.585 Y34.810
X22.563 Y34.595
X22.585 Y34.380
X22.652 Y34.174
X22.760 Y33.987
X22.905 Y33.827
X23.080 Y33.700
X23.277 Y33.612
X23.489 Y33.567
X23.705 Y33.567
X23.916 Y33.612
X24.114 Y33.700
X24.288 Y33.827
X24.433 Y33.987
X24.541 Y34.174
X24.608 Y34.380
X24.630 Y34.595
X24.608 Y34.810
X24.541 Y35.015
X24.433 Y35.203
X24.288 Y35.363
X24.114 Y35.490
X23.916 Y35.578
X23.705 Y35.623
X23.489 Y35.623
G0 Z3.000
G0  X26.003 Y35.623
G0  Z3.000
G01 F400 Z0
G01 F400 Z-0.100
G01F400X25.792 Y35.578
X25.594 Y35.490
X25.419 Y35.363
X25.275 Y35.203
X25.167 Y35.015
X25.100 Y34.810
X25.077 Y34.595
X25.100 Y34.380
X25.167 Y34.174
X25.275 Y33.987
X25.419 Y33.827
X25.594 Y33.700
X25.792 Y33.612
X26.003 Y33.567
X26.219 Y33.567
X26.431 Y33.612
X26.628 Y33.700
X26.803 Y33.827
X26.948 Y33.987
X27.056 Y34.174
X27.122 Y34.380
X27.145 Y34.595
X27.122 Y34.810
X27.056 Y35.015
X26.948 Y35.203
X26.803 Y35.363
X26.628 Y35.490
X26.431 Y35.578
X26.219 Y35.623
X26.003 Y35.623
G0 Z3.000
G0  X18.383 Y35.623
G0  Z3.000
G01 F400 Z0
G01 F400 Z-0.100
G01F400X18.172 Y35.578
X17.974 Y35.490
X17.799 Y35.363
X17.655 Y35.203
X17.547 Y35.015
X17.480 Y34.810
X17.457 Y34.595
X17.480 Y34.380
X17.547 Y34.174
X17.655 Y33.987
X17.799 Y33.827
X17.974 Y33.700
X18.172 Y33.612
X18.383 Y33.567
X18.599 Y33.567
X18.811 Y33.612
X19.008 Y33.700
X19.183 Y33.827
X19.328 Y33.987
X19.436 Y34.174
X19.502 Y34.380
X19.525 Y34.595
X19.502 Y34.810
X19.436 Y35.015
X19.328 Y35.203
X19.183 Y35.363
X19.008 Y35.490
X18.811 Y35.578
X18.599 Y35.623
X18.383 Y35.623
G0 Z3.000
G0  X20.948 Y35.623
G0  Z3.000
G01 F400 Z0
G01 F400 Z-0.100
G01F400X20.737 Y35.578
X20.540 Y35.490
X20.365 Y35.363
X20.220 Y35.203
X20.112 Y35.015
X20.045 Y34.810
X20.023 Y34.595
X20.045 Y34.380
X20.112 Y34.174
X20.220 Y33.987
X20.365 Y33.827
X20.540 Y33.700
X20.737 Y33.612
X20.948 Y33.567
X21.165 Y33.567
X21.376 Y33.612
X21.574 Y33.700
X21.748 Y33.827
X21.893 Y33.987
X22.001 Y34.174
X22.068 Y34.380
X22.090 Y34.595
X22.068 Y34.810
X22.001 Y35.015
X21.893 Y35.203
X21.748 Y35.363
X21.574 Y35.490
X21.376 Y35.578
X21.165 Y35.623
X20.948 Y35.623
G0 Z3.000
G0  X33.623 Y35.623
G0  Z3.000
G01 F400 Z0
G01 F400 Z-0.100
G01F400X33.412 Y35.578
X33.214 Y35.490
X33.039 Y35.363
X32.895 Y35.203
X32.787 Y35.015
X32.720 Y34.810
X32.697 Y34.595
X32.720 Y34.380
X32.787 Y34.174
X32.895 Y33.987
X33.039 Y33.827
X33.214 Y33.700
X33.412 Y33.612
X33.623 Y33.567
X33.839 Y33.567
X34.051 Y33.612
X34.248 Y33.700
X34.423 Y33.827
X34.568 Y33.987
X34.676 Y34.174
X34.742 Y34.380
X34.765 Y34.595
X34.742 Y34.810
X34.676 Y35.015
X34.568 Y35.203
X34.423 Y35.363
X34.248 Y35.490
X34.051 Y35.578
X33.839 Y35.623
X33.623 Y35.623
G0 Z3.000
G0  X36.163 Y35.623
G0  Z3.000
G01 F400 Z0
G01 F400 Z-0.100
G01F400X35.952 Y35.578
X35.754 Y35.490
X35.579 Y35.363
X35.435 Y35.203
X35.327 Y35.015
X35.260 Y34.810
X35.237 Y34.595
X35.260 Y34.380
X35.327 Y34.174
X35.435 Y33.987
X35.579 Y33.827
X35.754 Y33.700
X35.952 Y33.612
X36.163 Y33.567
X36.379 Y33.567
X36.591 Y33.612
X36.788 Y33.700
X36.963 Y33.827
X37.108 Y33.987
X37.216 Y34.174
X37.282 Y34.380
X37.305 Y34.595
X37.282 Y34.810
X37.216 Y35.015
X37.108 Y35.203
X36.963 Y35.363
X36.788 Y35.490
X36.591 Y35.578
X36.379 Y35.623
X36.163 Y35.623
G0 Z3.000
G0  X28.543 Y35.623
G0  Z3.000
G01 F400 Z0
G01 F400 Z-0.100
G01F400X28.332 Y35.578
X28.134 Y35.490
X27.959 Y35.363
X27.815 Y35.203
X27.707 Y35.015
X27.640 Y34.810
X27.617 Y34.595
X27.640 Y34.380
X27.707 Y34.174
X27.815 Y33.987
X27.959 Y33.827
X28.134 Y33.700
X28.332 Y33.612
X28.543 Y33.567
X28.759 Y33.567
X28.971 Y33.612
X29.168 Y33.700
X29.343 Y33.827
X29.488 Y33.987
X29.596 Y34.174
X29.662 Y34.380
X29.685 Y34.595
X29.662 Y34.810
X29.596 Y35.015
X29.488 Y35.203
X29.343 Y35.363
X29.168 Y35.490
X28.971 Y35.578
X28.759 Y35.623
X28.543 Y35.623
G0 Z3.000
G0  X31.083 Y35.623
G0  Z3.000
G01 F400 Z0
G01 F400 Z-0.100
G01F400X30.872 Y35.578
X30.674 Y35.490
X30.499 Y35.363
X30.355 Y35.203
X30.247 Y35.015
X30.180 Y34.810
X30.157 Y34.595
X30.180 Y34.380
X30.247 Y34.174
X30.355 Y33.987
X30.499 Y33.827
X30.524 Y33.808
X30.366 Y33.738
X30.087 Y33.535
X29.856 Y33.279
X29.684 Y32.980
X29.577 Y32.652
X29.541 Y32.309
X29.577 Y31.966
X29.684 Y31.638
X29.856 Y31.339
X30.087 Y31.082
X30.366 Y30.880
X30.681 Y30.739
X31.019 Y30.668
X31.364 Y30.668
X31.701 Y30.739
X32.016 Y30.880
X32.295 Y31.082
X32.526 Y31.339
X32.699 Y31.638
X32.805 Y31.966
X32.842 Y32.309
X32.805 Y32.652
X32.699 Y32.980
X32.526 Y33.279
X32.295 Y33.535
X32.016 Y33.738
X31.858 Y33.808
X31.883 Y33.827
X32.028 Y33.987
X32.136 Y34.174
X32.202 Y34.380
X32.225 Y34.595
X32.202 Y34.810
X32.136 Y35.015
X32.028 Y35.203
X31.883 Y35.363
X31.708 Y35.490
X31.511 Y35.578
X31.299 Y35.623
X31.083 Y35.623
G0 Z3.000
G0  X15.843 Y35.623
G0  Z3.000
G01 F400 Z0
G01 F400 Z-0.100
G01F400X15.632 Y35.578
X15.434 Y35.490
X15.259 Y35.363
X15.115 Y35.203
X15.007 Y35.015
X14.940 Y34.810
X14.917 Y34.595
X14.940 Y34.380
X15.007 Y34.174
X15.115 Y33.987
X15.259 Y33.827
X15.434 Y33.700
X15.502 Y33.669
X14.313 Y22.555
X11.416 Y22.576
X11.409 Y22.646
X11.286 Y23.023
X11.088 Y23.367
X10.822 Y23.663
X10.501 Y23.896
X10.138 Y24.058
X9.749 Y24.140
X9.352 Y24.140
X8.963 Y24.058
X8.600 Y23.896
X8.279 Y23.663
X8.013 Y23.367
X7.814 Y23.023
X7.692 Y22.646
X7.650 Y22.250
X7.692 Y21.855
X7.814 Y21.478
X8.013 Y21.133
X8.279 Y20.838
X8.600 Y20.605
X8.963 Y20.443
X9.352 Y20.361
X9.749 Y20.361
X10.138 Y20.443
X10.501 Y20.605
X10.822 Y20.838
X11.088 Y21.133
X11.286 Y21.478
X11.409 Y21.855
X11.411 Y21.869
X14.598 Y21.847
X14.668 Y21.847
X14.740 Y21.862
X14.808 Y21.892
X14.868 Y21.936
X14.918 Y21.991
X14.955 Y22.055
X14.978 Y22.126
X16.205 Y33.598
X16.271 Y33.612
X16.468 Y33.700
X16.643 Y33.827
X16.788 Y33.987
X16.896 Y34.174
X16.962 Y34.380
X16.985 Y34.595
X16.962 Y34.810
X16.896 Y35.015
X16.788 Y35.203
X16.643 Y35.363
X16.468 Y35.490
X16.271 Y35.578
X16.059 Y35.623
X15.843 Y35.623
G0 Z3.000
G0  X39.932 Y28.265
G0  Z3.000
G01 F400 Z0
G01 F400 Z-0.100
G01F400X39.740 Y28.224
X39.561 Y28.144
X39.402 Y28.028
X39.270 Y27.883
X39.172 Y27.712
X39.112 Y27.526
X39.091 Y27.330
X39.112 Y27.135
X39.172 Y26.948
X39.270 Y26.778
X39.402 Y26.632
X39.561 Y26.517
X39.740 Y26.437
X39.932 Y26.396
X40.129 Y26.396
X40.321 Y26.437
X40.500 Y26.517
X40.659 Y26.632
X40.790 Y26.778
X40.889 Y26.948
X40.949 Y27.135
X40.970 Y27.330
X40.949 Y27.526
X40.889 Y27.712
X40.790 Y27.883
X40.659 Y28.028
X40.500 Y28.144
X40.321 Y28.224
X40.129 Y28.265
X39.932 Y28.265
G0 Z3.000
G0  X42.472 Y28.265
G0  Z3.000
G01 F400 Z0
G01 F400 Z-0.100
G01F400X42.280 Y28.224
X42.101 Y28.144
X41.942 Y28.028
X41.811 Y27.883
X41.712 Y27.712
X41.652 Y27.526
X41.631 Y27.330
X41.652 Y27.135
X41.712 Y26.948
X41.811 Y26.778
X41.942 Y26.632
X42.101 Y26.517
X42.280 Y26.437
X42.472 Y26.396
X42.669 Y26.396
X42.861 Y26.437
X43.040 Y26.517
X43.199 Y26.632
X43.330 Y26.778
X43.428 Y26.948
X43.489 Y27.135
X43.510 Y27.330
X43.489 Y27.526
X43.428 Y27.712
X43.330 Y27.883
X43.199 Y28.028
X43.040 Y28.144
X42.861 Y28.224
X42.669 Y28.265
X42.472 Y28.265
G0 Z3.000
G0  X34.852 Y28.265
G0  Z3.000
G01 F400 Z0
G01 F400 Z-0.100
G01F400X34.660 Y28.224
X34.481 Y28.144
X34.322 Y28.028
X34.191 Y27.883
X34.092 Y27.712
X34.032 Y27.526
X34.011 Y27.330
X34.032 Y27.135
X34.092 Y26.948
X34.191 Y26.778
X34.322 Y26.632
X34.481 Y26.517
X34.660 Y26.437
X34.852 Y26.396
X35.049 Y26.396
X35.241 Y26.437
X35.420 Y26.517
X35.579 Y26.632
X35.710 Y26.778
X35.809 Y26.948
X35.869 Y27.135
X35.890 Y27.330
X35.869 Y27.526
X35.809 Y27.712
X35.710 Y27.883
X35.579 Y28.028
X35.420 Y28.144
X35.241 Y28.224
X35.049 Y28.265
X34.852 Y28.265
G0 Z3.000
G0  X37.392 Y28.265
G0  Z3.000
G01 F400 Z0
G01 F400 Z-0.100
G01F400X37.200 Y28.224
X37.021 Y28.144
X36.862 Y28.028
X36.730 Y27.883
X36.632 Y27.712
X36.572 Y27.526
X36.551 Y27.330
X36.572 Y27.135
X36.632 Y26.948
X36.730 Y26.778
X36.862 Y26.632
X37.021 Y26.517
X37.200 Y26.437
X37.392 Y26.396
X37.589 Y26.396
X37.781 Y26.437
X37.960 Y26.517
X38.119 Y26.632
X38.250 Y26.778
X38.349 Y26.948
X38.409 Y27.135
X38.430 Y27.330
X38.409 Y27.526
X38.349 Y27.712
X38.250 Y27.883
X38.119 Y28.028
X37.960 Y28.144
X37.781 Y28.224
X37.589 Y28.265
X37.392 Y28.265
G0 Z3.000
G0  X29.772 Y28.265
G0  Z3.000
G01 F400 Z0
G01 F400 Z-0.100
G01F400X29.580 Y28.224
X29.401 Y28.144
X29.242 Y28.028
X29.111 Y27.883
X29.012 Y27.712
X28.952 Y27.526
X28.931 Y27.330
X28.952 Y27.135
X29.012 Y26.948
X29.111 Y26.778
X29.242 Y26.632
X29.401 Y26.517
X29.580 Y26.437
X29.772 Y26.396
X29.969 Y26.396
X30.161 Y26.437
X30.340 Y26.517
X30.499 Y26.632
X30.630 Y26.778
X30.729 Y26.948
X30.789 Y27.135
X30.810 Y27.330
X30.789 Y27.526
X30.729 Y27.712
X30.630 Y27.883
X30.499 Y28.028
X30.340 Y28.144
X30.161 Y28.224
X29.969 Y28.265
X29.772 Y28.265
G0 Z3.000
G0  X32.312 Y28.265
G0  Z3.000
G01 F400 Z0
G01 F400 Z-0.100
G01F400X32.120 Y28.224
X31.941 Y28.144
X31.782 Y28.028
X31.651 Y27.883
X31.552 Y27.712
X31.492 Y27.526
X31.471 Y27.330
X31.492 Y27.135
X31.552 Y26.948
X31.651 Y26.778
X31.782 Y26.632
X31.941 Y26.517
X32.120 Y26.437
X32.312 Y26.396
X32.509 Y26.396
X32.701 Y26.437
X32.880 Y26.517
X33.039 Y26.632
X33.170 Y26.778
X33.269 Y26.948
X33.329 Y27.135
X33.350 Y27.330
X33.329 Y27.526
X33.269 Y27.712
X33.170 Y27.883
X33.039 Y28.028
X32.880 Y28.144
X32.701 Y28.224
X32.509 Y28.265
X32.312 Y28.265
G0 Z3.000
G0  X45.012 Y28.265
G0  Z3.000
G01 F400 Z0
G01 F400 Z-0.100
G01F400X44.820 Y28.224
X44.641 Y28.144
X44.482 Y28.028
X44.351 Y27.883
X44.252 Y27.712
X44.192 Y27.526
X44.171 Y27.330
X44.192 Y27.135
X44.252 Y26.948
X44.351 Y26.778
X44.482 Y26.632
X44.641 Y26.517
X44.820 Y26.437
X45.012 Y26.396
X45.209 Y26.396
X45.401 Y26.437
X45.580 Y26.517
X45.739 Y26.632
X45.870 Y26.778
X45.968 Y26.948
X46.029 Y27.135
X46.050 Y27.330
X46.029 Y27.526
X45.968 Y27.712
X45.870 Y27.883
X45.739 Y28.028
X45.580 Y28.144
X45.401 Y28.224
X45.209 Y28.265
X45.012 Y28.265
G0 Z3.000
G0  X47.552 Y28.265
G0  Z3.000
G01 F400 Z0
G01 F400 Z-0.100
G01F400X47.360 Y28.224
X47.181 Y28.144
X47.022 Y28.028
X46.891 Y27.883
X46.792 Y27.712
X46.732 Y27.526
X46.711 Y27.330
X46.732 Y27.135
X46.792 Y26.948
X46.891 Y26.778
X47.022 Y26.632
X47.181 Y26.517
X47.360 Y26.437
X47.552 Y26.396
X47.749 Y26.396
X47.941 Y26.437
X48.120 Y26.517
X48.279 Y26.632
X48.410 Y26.778
X48.509 Y26.948
X48.569 Y27.135
X48.590 Y27.330
X48.569 Y27.526
X48.509 Y27.712
X48.410 Y27.883
X48.279 Y28.028
X48.120 Y28.144
X47.941 Y28.224
X47.749 Y28.265
X47.552 Y28.265
G0 Z3.000
G0  X22.061 Y27.859
G0  Z3.000
G01 F400 Z0
G01 F400 Z-0.100
G01F400X21.692 Y27.780
X21.346 Y27.626
X21.040 Y27.404
X20.788 Y27.123
X20.598 Y26.796
X20.482 Y26.436
X20.442 Y26.060
X20.482 Y25.684
X20.598 Y25.325
X20.788 Y24.998
X21.040 Y24.717
X21.346 Y24.494
X21.692 Y24.341
X22.061 Y24.262
X22.439 Y24.262
X22.809 Y24.341
X23.155 Y24.494
X23.460 Y24.717
X23.713 Y24.998
X23.902 Y25.325
X24.019 Y25.684
X24.059 Y26.060
X24.019 Y26.436
X23.902 Y26.796
X23.713 Y27.123
X23.460 Y27.404
X23.155 Y27.626
X22.809 Y27.780
X22.439 Y27.859
X22.061 Y27.859
G0 Z3.000
G0  X52.806 Y26.058
G0  Z3.000
G01 F400 Z0
G01 F400 Z-0.100
G01F400X52.457 Y25.983
X52.130 Y25.838
X51.841 Y25.628
X51.602 Y25.363
X51.424 Y25.053
X51.313 Y24.714
X51.276 Y24.359
X51.313 Y24.003
X51.424 Y23.664
X51.602 Y23.355
X51.841 Y23.089
X52.130 Y22.879
X52.457 Y22.734
X52.806 Y22.660
X53.163 Y22.660
X53.512 Y22.734
X53.839 Y22.879
X54.128 Y23.089
X54.366 Y23.355
X54.545 Y23.664
X54.655 Y24.003
X54.693 Y24.359
X54.655 Y24.714
X54.545 Y25.053
X54.366 Y25.363
X54.128 Y25.628
X53.839 Y25.838
X53.512 Y25.983
X53.163 Y26.058
X52.806 Y26.058
G0 Z3.000
G0  X52.806 Y12.926
G0  Z3.000
G01 F400 Z0
G01 F400 Z-0.100
G01F400X52.457 Y12.852
X52.130 Y12.706
X51.841 Y12.496
X51.602 Y12.231
X51.424 Y11.922
X51.313 Y11.582
X51.276 Y11.227
X51.313 Y10.872
X51.424 Y10.532
X51.602 Y10.223
X51.841 Y9.957
X52.130 Y9.747
X52.457 Y9.602
X52.806 Y9.528
X53.163 Y9.528
X53.512 Y9.602
X53.839 Y9.747
X54.128 Y9.957
X54.366 Y10.223
X54.545 Y10.532
X54.655 Y10.872
X54.693 Y11.227
X54.655 Y11.582
X54.545 Y11.922
X54.366 Y12.231
X54.128 Y12.496
X53.839 Y12.706
X53.512 Y12.852
X53.163 Y12.926
X52.806 Y12.926
G0 Z3.000
G0  X22.061 Y11.349
G0  Z3.000
G01 F400 Z0
G01 F400 Z-0.100
G01F400X21.692 Y11.270
X21.346 Y11.116
X21.040 Y10.894
X20.788 Y10.613
X20.598 Y10.286
X20.482 Y9.926
X20.442 Y9.550
X20.482 Y9.174
X20.598 Y8.815
X20.788 Y8.488
X21.040 Y8.207
X21.346 Y7.984
X21.692 Y7.831
X22.061 Y7.752
X22.439 Y7.752
X22.809 Y7.831
X23.155 Y7.984
X23.460 Y8.207
X23.713 Y8.488
X23.902 Y8.815
X24.019 Y9.174
X24.059 Y9.550
X24.019 Y9.926
X23.902 Y10.286
X23.713 Y10.613
X23.460 Y10.894
X23.155 Y11.116
X22.809 Y11.270
X22.439 Y11.349
X22.061 Y11.349
G0 Z3.000
G0  X13.500 Y56.401
G0  Z3.000
G01 F400 Z0
G01 F400 Z-0.100
G01F400X13.500 Y54.140
X15.761 Y54.140
X15.761 Y56.401
X13.500 Y56.401
G0 Z3.000
G0  X24.693 Y55.764
G0  Z3.000
G01 F400 Z0
G01 F400 Z-0.100
G01F400X24.602 Y55.745
X24.517 Y55.707
X24.442 Y55.652
X24.379 Y55.583
X24.332 Y55.502
X24.304 Y55.414
X24.295 Y55.328
X24.346 Y50.132
X24.355 Y50.047
X24.383 Y49.958
X24.430 Y49.878
X24.492 Y49.808
X24.568 Y49.754
X24.653 Y49.716
X24.744 Y49.697
X32.089 Y49.697
X32.857 Y48.221
X32.837 Y48.199
X32.721 Y47.999
X32.649 Y47.779
X32.625 Y47.549
X32.649 Y47.319
X32.721 Y47.099
X32.837 Y46.899
X32.991 Y46.727
X33.178 Y46.591
X33.389 Y46.497
X33.616 Y46.449
X33.847 Y46.449
X34.073 Y46.497
X34.284 Y46.591
X34.471 Y46.727
X34.626 Y46.899
X34.742 Y47.099
X34.813 Y47.319
X34.837 Y47.549
X34.813 Y47.779
X34.742 Y47.999
X34.626 Y48.199
X34.471 Y48.371
X34.284 Y48.507
X34.073 Y48.601
X33.847 Y48.649
X33.636 Y48.649
X32.761 Y50.331
X32.720 Y50.402
X32.658 Y50.471
X32.582 Y50.526
X32.497 Y50.563
X32.406 Y50.583
X25.231 Y50.583
X25.189 Y54.878
X55.241 Y54.878
X62.446 Y52.364
X62.446 Y45.078
X62.455 Y44.992
X62.483 Y44.904
X62.530 Y44.823
X62.592 Y44.754
X62.668 Y44.699
X62.753 Y44.661
X62.844 Y44.642
X72.580 Y44.642
X72.580 Y30.638
X65.327 Y34.514
X65.335 Y34.595
X65.311 Y34.828
X65.238 Y35.052
X65.121 Y35.256
X64.963 Y35.430
X64.773 Y35.569
X64.559 Y35.664
X64.329 Y35.713
X64.094 Y35.713
X63.864 Y35.664
X63.649 Y35.569
X63.459 Y35.430
X63.302 Y35.256
X63.184 Y35.052
X63.111 Y34.828
X63.087 Y34.595
X63.111 Y34.361
X63.184 Y34.138
X63.302 Y33.934
X63.459 Y33.759
X63.649 Y33.621
X63.864 Y33.526
X64.094 Y33.477
X64.329 Y33.477
X64.559 Y33.526
X64.773 Y33.621
X64.916 Y33.725
X72.811 Y29.506
X72.887 Y29.472
X72.978 Y29.453
X73.072 Y29.453
X73.163 Y29.472
X73.248 Y29.510
X73.323 Y29.565
X73.386 Y29.634
X73.432 Y29.715
X73.461 Y29.803
X73.470 Y29.889
X73.470 Y45.092
X73.461 Y45.178
X73.432 Y45.266
X73.386 Y45.347
X73.323 Y45.416
X73.248 Y45.471
X73.163 Y45.509
X73.072 Y45.528
X63.335 Y45.528
X63.335 Y52.687
X63.326 Y52.772
X63.298 Y52.861
X63.251 Y52.942
X63.189 Y53.011
X63.113 Y53.066
X63.036 Y53.100
X55.453 Y55.746
X55.368 Y55.764
X24.693 Y55.764
G0 Z3.000
G0  X14.512 Y53.856
G0  Z3.000
G01 F400 Z0
G01 F400 Z-0.100
G01F400X14.281 Y53.806
X14.065 Y53.710
X13.873 Y53.571
X13.715 Y53.395
X13.597 Y53.191
X13.524 Y52.966
X13.499 Y52.730
X13.524 Y52.495
X13.597 Y52.270
X13.715 Y52.065
X13.873 Y51.890
X14.065 Y51.751
X14.281 Y51.654
X14.512 Y51.605
X14.749 Y51.605
X14.980 Y51.654
X15.196 Y51.751
X15.387 Y51.890
X15.546 Y52.065
X15.658 Y52.260
X19.240 Y52.239
X19.240 Y45.078
X19.249 Y44.992
X19.278 Y44.904
X19.325 Y44.823
X19.387 Y44.754
X19.462 Y44.699
X19.547 Y44.661
X19.639 Y44.642
X35.022 Y44.642
X35.114 Y44.661
X35.199 Y44.699
X35.274 Y44.754
X35.336 Y44.823
X35.377 Y44.894
X36.177 Y46.449
X36.287 Y46.449
X37.089 Y44.894
X37.130 Y44.823
X37.192 Y44.754
X37.268 Y44.699
X37.353 Y44.661
X37.432 Y44.644
X52.321 Y42.155
X53.380 Y38.030
X53.299 Y37.970
X53.142 Y37.796
X53.024 Y37.592
X52.952 Y37.369
X52.927 Y37.135
X52.952 Y36.901
X53.024 Y36.678
X53.142 Y36.474
X53.299 Y36.299
X53.489 Y36.161
X53.704 Y36.066
X53.934 Y36.017
X54.169 Y36.017
X54.399 Y36.066
X54.613 Y36.161
X54.803 Y36.299
X54.961 Y36.474
X55.078 Y36.678
X55.151 Y36.901
X55.175 Y37.135
X55.151 Y37.369
X55.078 Y37.592
X54.961 Y37.796
X54.803 Y37.970
X54.613 Y38.108
X54.399 Y38.204
X54.268 Y38.232
X53.112 Y42.648
X53.087 Y42.726
X53.040 Y42.807
X52.978 Y42.876
X52.902 Y42.931
X52.817 Y42.969
X52.738 Y42.986
X37.785 Y45.486
X37.104 Y46.830
X37.166 Y46.899
X37.282 Y47.099
X37.353 Y47.319
X37.377 Y47.549
X37.353 Y47.779
X37.282 Y47.999
X37.166 Y48.199
X37.011 Y48.371
X36.824 Y48.507
X36.613 Y48.601
X36.387 Y48.649
X36.156 Y48.649
X35.929 Y48.601
X35.718 Y48.507
X35.531 Y48.371
X35.377 Y48.199
X35.261 Y47.999
X35.189 Y47.779
X35.165 Y47.549
X35.189 Y47.319
X35.261 Y47.099
X35.377 Y46.899
X35.397 Y46.876
X34.704 Y45.528
X20.130 Y45.528
X20.130 Y52.687
X20.121 Y52.772
X20.092 Y52.861
X20.046 Y52.942
X19.983 Y53.011
X19.908 Y53.066
X19.823 Y53.103
X19.732 Y53.123
X15.678 Y53.147
X15.664 Y53.191
X15.546 Y53.395
X15.387 Y53.571
X15.196 Y53.710
X14.980 Y53.806
X14.749 Y53.856
X14.512 Y53.856
G0 Z3.000
G0  X14.512 Y51.316
G0  Z3.000
G01 F400 Z0
G01 F400 Z-0.100
G01F400X14.281 Y51.266
X14.065 Y51.170
X13.873 Y51.031
X13.715 Y50.855
X13.597 Y50.651
X13.524 Y50.426
X13.499 Y50.190
X13.524 Y49.955
X13.597 Y49.730
X13.715 Y49.525
X13.873 Y49.350
X14.065 Y49.211
X14.184 Y49.157
X14.186 Y42.538
X14.195 Y42.452
X14.223 Y42.364
X14.270 Y42.283
X14.332 Y42.214
X14.408 Y42.159
X14.493 Y42.121
X14.578 Y42.103
X42.507 Y39.587
X47.341 Y39.587
X48.136 Y37.878
X48.062 Y37.796
X47.944 Y37.592
X47.872 Y37.369
X47.847 Y37.135
X47.872 Y36.901
X47.944 Y36.678
X48.062 Y36.474
X48.219 Y36.299
X48.409 Y36.161
X48.624 Y36.066
X48.854 Y36.017
X49.089 Y36.017
X49.319 Y36.066
X49.533 Y36.161
X49.724 Y36.299
X49.881 Y36.474
X49.998 Y36.678
X50.071 Y36.901
X50.096 Y37.135
X50.071 Y37.369
X49.998 Y37.592
X49.881 Y37.796
X49.724 Y37.970
X49.533 Y38.108
X49.319 Y38.204
X49.089 Y38.253
X48.957 Y38.253
X48.028 Y40.219
X47.986 Y40.292
X47.923 Y40.362
X47.848 Y40.416
X47.763 Y40.454
X47.672 Y40.474
X42.583 Y40.474
X15.075 Y42.951
X15.075 Y49.157
X15.196 Y49.211
X15.387 Y49.350
X15.546 Y49.525
X15.664 Y49.730
X15.737 Y49.955
X15.762 Y50.190
X15.737 Y50.426
X15.664 Y50.651
X15.546 Y50.855
X15.387 Y51.031
X15.196 Y51.170
X14.980 Y51.266
X14.749 Y51.316
X14.512 Y51.316
G0 Z3.000
G0  X31.076 Y48.649
G0  Z3.000
G01 F400 Z0
G01 F400 Z-0.100
G01F400X30.849 Y48.601
X30.638 Y48.507
X30.451 Y48.371
X30.297 Y48.199
X30.181 Y47.999
X30.109 Y47.779
X30.085 Y47.549
X30.109 Y47.319
X30.181 Y47.099
X30.297 Y46.899
X30.451 Y46.727
X30.638 Y46.591
X30.849 Y46.497
X31.076 Y46.449
X31.307 Y46.449
X31.533 Y46.497
X31.744 Y46.591
X31.931 Y46.727
X32.086 Y46.899
X32.202 Y47.099
X32.273 Y47.319
X32.297 Y47.549
X32.273 Y47.779
X32.202 Y47.999
X32.086 Y48.199
X31.931 Y48.371
X31.744 Y48.507
X31.533 Y48.601
X31.307 Y48.649
X31.076 Y48.649
G0 Z3.000
G0  X38.696 Y48.649
G0  Z3.000
G01 F400 Z0
G01 F400 Z-0.100
G01F400X38.469 Y48.601
X38.258 Y48.507
X38.071 Y48.371
X37.916 Y48.199
X37.801 Y47.999
X37.729 Y47.779
X37.705 Y47.549
X37.729 Y47.319
X37.801 Y47.099
X37.916 Y46.899
X38.071 Y46.727
X38.258 Y46.591
X38.469 Y46.497
X38.696 Y46.449
X38.927 Y46.449
X39.153 Y46.497
X39.364 Y46.591
X39.551 Y46.727
X39.706 Y46.899
X39.822 Y47.099
X39.893 Y47.319
X39.917 Y47.549
X39.893 Y47.779
X39.822 Y47.999
X39.706 Y48.199
X39.551 Y48.371
X39.364 Y48.507
X39.153 Y48.601
X38.927 Y48.649
X38.696 Y48.649
G0 Z3.000
G0  X46.316 Y48.649
G0  Z3.000
G01 F400 Z0
G01 F400 Z-0.100
G01F400X46.089 Y48.601
X45.878 Y48.507
X45.691 Y48.371
X45.537 Y48.199
X45.421 Y47.999
X45.349 Y47.779
X45.325 Y47.549
X45.349 Y47.319
X45.421 Y47.099
X45.537 Y46.899
X45.691 Y46.727
X45.878 Y46.591
X46.089 Y46.497
X46.316 Y46.449
X46.547 Y46.449
X46.773 Y46.497
X46.984 Y46.591
X47.171 Y46.727
X47.326 Y46.899
X47.442 Y47.099
X47.513 Y47.319
X47.537 Y47.549
X47.513 Y47.779
X47.442 Y47.999
X47.326 Y48.199
X47.171 Y48.371
X46.984 Y48.507
X46.773 Y48.601
X46.547 Y48.649
X46.316 Y48.649
G0 Z3.000
G0  X48.856 Y48.649
G0  Z3.000
G01 F400 Z0
G01 F400 Z-0.100
G01F400X48.629 Y48.601
X48.418 Y48.507
X48.231 Y48.371
X48.077 Y48.199
X47.961 Y47.999
X47.889 Y47.779
X47.865 Y47.549
X47.889 Y47.319
X47.961 Y47.099
X48.077 Y46.899
X48.231 Y46.727
X48.418 Y46.591
X48.629 Y46.497
X48.856 Y46.449
X49.087 Y46.449
X49.313 Y46.497
X49.524 Y46.591
X49.711 Y46.727
X49.866 Y46.899
X49.982 Y47.099
X50.053 Y47.319
X50.077 Y47.549
X50.053 Y47.779
X49.982 Y47.999
X49.866 Y48.199
X49.711 Y48.371
X49.524 Y48.507
X49.313 Y48.601
X49.087 Y48.649
X48.856 Y48.649
G0 Z3.000
G0  X41.236 Y48.649
G0  Z3.000
G01 F400 Z0
G01 F400 Z-0.100
G01F400X41.009 Y48.601
X40.798 Y48.507
X40.611 Y48.371
X40.457 Y48.199
X40.341 Y47.999
X40.269 Y47.779
X40.245 Y47.549
X40.269 Y47.319
X40.341 Y47.099
X40.457 Y46.899
X40.611 Y46.727
X40.798 Y46.591
X41.009 Y46.497
X41.236 Y46.449
X41.467 Y46.449
X41.693 Y46.497
X41.904 Y46.591
X42.091 Y46.727
X42.246 Y46.899
X42.362 Y47.099
X42.433 Y47.319
X42.457 Y47.549
X42.433 Y47.779
X42.362 Y47.999
X42.246 Y48.199
X42.091 Y48.371
X41.904 Y48.507
X41.693 Y48.601
X41.467 Y48.649
X41.236 Y48.649
G0 Z3.000
G0  X43.776 Y48.649
G0  Z3.000
G01 F400 Z0
G01 F400 Z-0.100
G01F400X43.549 Y48.601
X43.338 Y48.507
X43.151 Y48.371
X42.997 Y48.199
X42.881 Y47.999
X42.809 Y47.779
X42.785 Y47.549
X42.809 Y47.319
X42.881 Y47.099
X42.997 Y46.899
X43.151 Y46.727
X43.338 Y46.591
X43.549 Y46.497
X43.776 Y46.449
X44.007 Y46.449
X44.233 Y46.497
X44.444 Y46.591
X44.631 Y46.727
X44.786 Y46.899
X44.902 Y47.099
X44.973 Y47.319
X44.997 Y47.549
X44.973 Y47.779
X44.902 Y47.999
X44.786 Y48.199
X44.631 Y48.371
X44.444 Y48.507
X44.233 Y48.601
X44.007 Y48.649
X43.776 Y48.649
G0 Z3.000
G0  X6.989 Y40.474
G0  Z3.000
G01 F400 Z0
G01 F400 Z-0.100
G01F400X6.898 Y40.454
X6.813 Y40.416
X6.738 Y40.362
X6.675 Y40.292
X6.629 Y40.212
X6.600 Y40.123
X6.591 Y40.038
X6.591 Y27.374
X6.600 Y27.289
X6.629 Y27.200
X6.675 Y27.119
X6.738 Y27.050
X6.813 Y26.995
X6.898 Y26.957
X6.988 Y26.938
X7.544 Y26.924
X7.544 Y25.374
X9.231 Y25.374
X9.342 Y25.351
X9.758 Y25.351
X9.870 Y25.374
X11.532 Y25.374
X11.532 Y27.242
X11.541 Y27.330
X11.532 Y27.418
X11.532 Y29.337
X7.544 Y29.337
X7.544 Y27.813
X7.481 Y27.814
X7.481 Y39.587
X14.346 Y39.587
X15.133 Y37.896
X15.042 Y37.796
X14.924 Y37.592
X14.852 Y37.369
X14.827 Y37.135
X14.852 Y36.901
X14.924 Y36.678
X15.042 Y36.474
X15.199 Y36.299
X15.389 Y36.161
X15.604 Y36.066
X15.834 Y36.017
X16.069 Y36.017
X16.299 Y36.066
X16.513 Y36.161
X16.704 Y36.299
X16.861 Y36.474
X16.978 Y36.678
X17.051 Y36.901
X17.076 Y37.135
X17.051 Y37.369
X16.978 Y37.592
X16.861 Y37.796
X16.704 Y37.970
X16.513 Y38.108
X16.299 Y38.204
X16.069 Y38.253
X15.948 Y38.253
X15.033 Y40.219
X14.991 Y40.292
X14.929 Y40.362
X14.853 Y40.416
X14.768 Y40.454
X14.677 Y40.474
X6.989 Y40.474
G0 Z3.000
G0  X43.774 Y38.304
G0  Z3.000
G01 F400 Z0
G01 F400 Z-0.100
G01F400X43.544 Y38.255
X43.329 Y38.159
X43.139 Y38.021
X42.982 Y37.846
X42.864 Y37.643
X42.791 Y37.419
X42.767 Y37.186
X42.791 Y36.952
X42.864 Y36.728
X42.982 Y36.525
X43.139 Y36.350
X43.329 Y36.212
X43.544 Y36.116
X43.774 Y36.067
X44.009 Y36.067
X44.239 Y36.116
X44.453 Y36.212
X44.644 Y36.350
X44.801 Y36.525
X44.918 Y36.728
X44.991 Y36.952
X45.016 Y37.186
X44.991 Y37.419
X44.918 Y37.643
X44.801 Y37.846
X44.644 Y38.021
X44.453 Y38.159
X44.239 Y38.255
X44.009 Y38.304
X43.774 Y38.304
G0 Z3.000
G0  X18.374 Y38.253
G0  Z3.000
G01 F400 Z0
G01 F400 Z-0.100
G01F400X18.144 Y38.204
X17.929 Y38.108
X17.739 Y37.970
X17.582 Y37.796
X17.464 Y37.592
X17.392 Y37.369
X17.367 Y37.135
X17.392 Y36.901
X17.464 Y36.678
X17.582 Y36.474
X17.739 Y36.299
X17.929 Y36.161
X18.144 Y36.066
X18.374 Y36.017
X18.609 Y36.017
X18.839 Y36.066
X19.053 Y36.161
X19.244 Y36.299
X19.401 Y36.474
X19.518 Y36.678
X19.591 Y36.901
X19.616 Y37.135
X19.591 Y37.369
X19.518 Y37.592
X19.401 Y37.796
X19.244 Y37.970
X19.053 Y38.108
X18.839 Y38.204
X18.609 Y38.253
X18.374 Y38.253
G0 Z3.000
G0  X20.939 Y38.253
G0  Z3.000
G01 F400 Z0
G01 F400 Z-0.100
G01F400X20.709 Y38.204
X20.495 Y38.108
X20.304 Y37.970
X20.147 Y37.796
X20.030 Y37.592
X19.957 Y37.369
X19.932 Y37.135
X19.957 Y36.901
X20.030 Y36.678
X20.147 Y36.474
X20.304 Y36.299
X20.495 Y36.161
X20.709 Y36.066
X20.939 Y36.017
X21.174 Y36.017
X21.404 Y36.066
X21.619 Y36.161
X21.809 Y36.299
X21.966 Y36.474
X22.084 Y36.678
X22.156 Y36.901
X22.181 Y37.135
X22.156 Y37.369
X22.084 Y37.592
X21.966 Y37.796
X21.809 Y37.970
X21.619 Y38.108
X21.404 Y38.204
X21.174 Y38.253
X20.939 Y38.253
G0 Z3.000
G0  X28.534 Y38.253
G0  Z3.000
G01 F400 Z0
G01 F400 Z-0.100
G01F400X28.304 Y38.204
X28.089 Y38.108
X27.899 Y37.970
X27.742 Y37.796
X27.624 Y37.592
X27.552 Y37.369
X27.527 Y37.135
X27.552 Y36.901
X27.624 Y36.678
X27.742 Y36.474
X27.899 Y36.299
X28.089 Y36.161
X28.304 Y36.066
X28.534 Y36.017
X28.769 Y36.017
X28.999 Y36.066
X29.213 Y36.161
X29.404 Y36.299
X29.561 Y36.474
X29.678 Y36.678
X29.751 Y36.901
X29.776 Y37.135
X29.751 Y37.369
X29.678 Y37.592
X29.561 Y37.796
X29.404 Y37.970
X29.213 Y38.108
X28.999 Y38.204
X28.769 Y38.253
X28.534 Y38.253
G0 Z3.000
G0  X31.074 Y38.253
G0  Z3.000
G01 F400 Z0
G01 F400 Z-0.100
G01F400X30.844 Y38.204
X30.629 Y38.108
X30.439 Y37.970
X30.282 Y37.796
X30.164 Y37.592
X30.091 Y37.369
X30.067 Y37.135
X30.091 Y36.901
X30.164 Y36.678
X30.282 Y36.474
X30.439 Y36.299
X30.629 Y36.161
X30.844 Y36.066
X31.074 Y36.017
X31.309 Y36.017
X31.539 Y36.066
X31.753 Y36.161
X31.944 Y36.299
X32.101 Y36.474
X32.218 Y36.678
X32.291 Y36.901
X32.316 Y37.135
X32.291 Y37.369
X32.218 Y37.592
X32.101 Y37.796
X31.944 Y37.970
X31.753 Y38.108
X31.539 Y38.204
X31.309 Y38.253
X31.074 Y38.253
G0 Z3.000
G0  X23.479 Y38.253
G0  Z3.000
G01 F400 Z0
G01 F400 Z-0.100
G01F400X23.249 Y38.204
X23.035 Y38.108
X22.844 Y37.970
X22.687 Y37.796
X22.570 Y37.592
X22.497 Y37.369
X22.472 Y37.135
X22.497 Y36.901
X22.570 Y36.678
X22.687 Y36.474
X22.844 Y36.299
X23.035 Y36.161
X23.249 Y36.066
X23.479 Y36.017
X23.714 Y36.017
X23.944 Y36.066
X24.159 Y36.161
X24.349 Y36.299
X24.506 Y36.474
X24.624 Y36.678
X24.696 Y36.901
X24.721 Y37.135
X24.696 Y37.369
X24.624 Y37.592
X24.506 Y37.796
X24.349 Y37.970
X24.159 Y38.108
X23.944 Y38.204
X23.714 Y38.253
X23.479 Y38.253
G0 Z3.000
G0  X25.994 Y38.253
G0  Z3.000
G01 F400 Z0
G01 F400 Z-0.100
G01F400X25.764 Y38.204
X25.549 Y38.108
X25.359 Y37.970
X25.202 Y37.796
X25.084 Y37.592
X25.012 Y37.369
X24.987 Y37.135
X25.012 Y36.901
X25.084 Y36.678
X25.202 Y36.474
X25.359 Y36.299
X25.549 Y36.161
X25.764 Y36.066
X25.994 Y36.017
X26.229 Y36.017
X26.459 Y36.066
X26.673 Y36.161
X26.864 Y36.299
X27.021 Y36.474
X27.138 Y36.678
X27.211 Y36.901
X27.236 Y37.135
X27.211 Y37.369
X27.138 Y37.592
X27.021 Y37.796
X26.864 Y37.970
X26.673 Y38.108
X26.459 Y38.204
X26.229 Y38.253
X25.994 Y38.253
G0 Z3.000
G0  X59.014 Y38.253
G0  Z3.000
G01 F400 Z0
G01 F400 Z-0.100
G01F400X58.784 Y38.204
X58.569 Y38.108
X58.379 Y37.970
X58.222 Y37.796
X58.104 Y37.592
X58.032 Y37.369
X58.007 Y37.135
X58.032 Y36.901
X58.104 Y36.678
X58.222 Y36.474
X58.379 Y36.299
X58.569 Y36.161
X58.784 Y36.066
X59.014 Y36.017
X59.249 Y36.017
X59.479 Y36.066
X59.693 Y36.161
X59.884 Y36.299
X60.041 Y36.474
X60.158 Y36.678
X60.231 Y36.901
X60.256 Y37.135
X60.231 Y37.369
X60.158 Y37.592
X60.041 Y37.796
X59.884 Y37.970
X59.693 Y38.108
X59.479 Y38.204
X59.249 Y38.253
X59.014 Y38.253
G0 Z3.000
G0  X61.554 Y38.253
G0  Z3.000
G01 F400 Z0
G01 F400 Z-0.100
G01F400X61.324 Y38.204
X61.109 Y38.108
X60.919 Y37.970
X60.762 Y37.796
X60.644 Y37.592
X60.572 Y37.369
X60.547 Y37.135
X60.572 Y36.901
X60.644 Y36.678
X60.762 Y36.474
X60.919 Y36.299
X61.109 Y36.161
X61.324 Y36.066
X61.554 Y36.017
X61.789 Y36.017
X62.019 Y36.066
X62.233 Y36.161
X62.424 Y36.299
X62.581 Y36.474
X62.698 Y36.678
X62.771 Y36.901
X62.796 Y37.135
X62.771 Y37.369
X62.698 Y37.592
X62.581 Y37.796
X62.424 Y37.970
X62.233 Y38.108
X62.019 Y38.204
X61.789 Y38.253
X61.554 Y38.253
G0 Z3.000
G0  X56.474 Y38.253
G0  Z3.000
G01 F400 Z0
G01 F400 Z-0.100
G01F400X56.244 Y38.204
X56.029 Y38.108
X55.839 Y37.970
X55.682 Y37.796
X55.564 Y37.592
X55.492 Y37.369
X55.467 Y37.135
X55.492 Y36.901
X55.564 Y36.678
X55.682 Y36.474
X55.839 Y36.299
X56.029 Y36.161
X56.244 Y36.066
X56.474 Y36.017
X56.709 Y36.017
X56.939 Y36.066
X57.153 Y36.161
X57.344 Y36.299
X57.501 Y36.474
X57.618 Y36.678
X57.691 Y36.901
X57.716 Y37.135
X57.691 Y37.369
X57.618 Y37.592
X57.501 Y37.796
X57.344 Y37.970
X57.153 Y38.108
X56.939 Y38.204
X56.709 Y38.253
X56.474 Y38.253
G0 Z3.000
G0  X64.119 Y38.253
G0  Z3.000
G01 F400 Z0
G01 F400 Z-0.100
G01F400X63.889 Y38.204
X63.675 Y38.108
X63.484 Y37.970
X63.327 Y37.796
X63.210 Y37.592
X63.137 Y37.369
X63.112 Y37.135
X63.137 Y36.901
X63.210 Y36.678
X63.327 Y36.474
X63.484 Y36.299
X63.675 Y36.161
X63.889 Y36.066
X64.119 Y36.017
X64.354 Y36.017
X64.584 Y36.066
X64.799 Y36.161
X64.989 Y36.299
X65.146 Y36.474
X65.264 Y36.678
X65.336 Y36.901
X65.361 Y37.135
X65.336 Y37.369
X65.264 Y37.592
X65.146 Y37.796
X64.989 Y37.970
X64.799 Y38.108
X64.584 Y38.204
X64.354 Y38.253
X64.119 Y38.253
G0 Z3.000
G0  X38.694 Y38.253
G0  Z3.000
G01 F400 Z0
G01 F400 Z-0.100
G01F400X38.464 Y38.204
X38.249 Y38.108
X38.059 Y37.970
X37.902 Y37.796
X37.784 Y37.592
X37.712 Y37.369
X37.687 Y37.135
X37.712 Y36.901
X37.784 Y36.678
X37.902 Y36.474
X38.059 Y36.299
X38.249 Y36.161
X38.464 Y36.066
X38.694 Y36.017
X38.929 Y36.017
X39.159 Y36.066
X39.373 Y36.161
X39.564 Y36.299
X39.721 Y36.474
X39.838 Y36.678
X39.911 Y36.901
X39.936 Y37.135
X39.911 Y37.369
X39.838 Y37.592
X39.721 Y37.796
X39.564 Y37.970
X39.373 Y38.108
X39.159 Y38.204
X38.929 Y38.253
X38.694 Y38.253
G0 Z3.000
G0  X41.234 Y38.253
G0  Z3.000
G01 F400 Z0
G01 F400 Z-0.100
G01F400X41.004 Y38.204
X40.789 Y38.108
X40.599 Y37.970
X40.442 Y37.796
X40.324 Y37.592
X40.252 Y37.369
X40.227 Y37.135
X40.252 Y36.901
X40.324 Y36.678
X40.442 Y36.474
X40.599 Y36.299
X40.789 Y36.161
X41.004 Y36.066
X41.234 Y36.017
X41.469 Y36.017
X41.699 Y36.066
X41.913 Y36.161
X42.104 Y36.299
X42.261 Y36.474
X42.378 Y36.678
X42.451 Y36.901
X42.476 Y37.135
X42.451 Y37.369
X42.378 Y37.592
X42.261 Y37.796
X42.104 Y37.970
X41.913 Y38.108
X41.699 Y38.204
X41.469 Y38.253
X41.234 Y38.253
G0 Z3.000
G0  X33.614 Y38.253
G0  Z3.000
G01 F400 Z0
G01 F400 Z-0.100
G01F400X33.384 Y38.204
X33.169 Y38.108
X32.979 Y37.970
X32.822 Y37.796
X32.704 Y37.592
X32.632 Y37.369
X32.607 Y37.135
X32.632 Y36.901
X32.704 Y36.678
X32.822 Y36.474
X32.979 Y36.299
X33.169 Y36.161
X33.384 Y36.066
X33.614 Y36.017
X33.849 Y36.017
X34.079 Y36.066
X34.293 Y36.161
X34.483 Y36.299
X34.641 Y36.474
X34.758 Y36.678
X34.831 Y36.901
X34.855 Y37.135
X34.831 Y37.369
X34.758 Y37.592
X34.641 Y37.796
X34.483 Y37.970
X34.293 Y38.108
X34.079 Y38.204
X33.849 Y38.253
X33.614 Y38.253
G0 Z3.000
G0  X36.154 Y38.253
G0  Z3.000
G01 F400 Z0
G01 F400 Z-0.100
G01F400X35.924 Y38.204
X35.709 Y38.108
X35.519 Y37.970
X35.362 Y37.796
X35.244 Y37.592
X35.172 Y37.369
X35.147 Y37.135
X35.172 Y36.901
X35.244 Y36.678
X35.362 Y36.474
X35.519 Y36.299
X35.709 Y36.161
X35.924 Y36.066
X36.154 Y36.017
X36.389 Y36.017
X36.619 Y36.066
X36.833 Y36.161
X37.023 Y36.299
X37.181 Y36.474
X37.298 Y36.678
X37.371 Y36.901
X37.395 Y37.135
X37.371 Y37.369
X37.298 Y37.592
X37.181 Y37.796
X37.023 Y37.970
X36.833 Y38.108
X36.619 Y38.204
X36.389 Y38.253
X36.154 Y38.253
G0 Z3.000
G0  X51.394 Y38.253
G0  Z3.000
G01 F400 Z0
G01 F400 Z-0.100
G01F400X51.164 Y38.204
X50.949 Y38.108
X50.759 Y37.970
X50.602 Y37.796
X50.484 Y37.592
X50.412 Y37.369
X50.387 Y37.135
X50.412 Y36.901
X50.484 Y36.678
X50.602 Y36.474
X50.759 Y36.299
X50.949 Y36.161
X51.164 Y36.066
X51.394 Y36.017
X51.629 Y36.017
X51.859 Y36.066
X52.073 Y36.161
X52.264 Y36.299
X52.421 Y36.474
X52.538 Y36.678
X52.611 Y36.901
X52.636 Y37.135
X52.611 Y37.369
X52.538 Y37.592
X52.421 Y37.796
X52.264 Y37.970
X52.073 Y38.108
X51.859 Y38.204
X51.629 Y38.253
X51.394 Y38.253
G0 Z3.000
G0  X46.314 Y38.253
G0  Z3.000
G01 F400 Z0
G01 F400 Z-0.100
G01F400X46.084 Y38.204
X45.869 Y38.108
X45.679 Y37.970
X45.522 Y37.796
X45.404 Y37.592
X45.332 Y37.369
X45.307 Y37.135
X45.332 Y36.901
X45.404 Y36.678
X45.522 Y36.474
X45.679 Y36.299
X45.869 Y36.161
X46.084 Y36.066
X46.314 Y36.017
X46.549 Y36.017
X46.779 Y36.066
X46.993 Y36.161
X47.184 Y36.299
X47.341 Y36.474
X47.458 Y36.678
X47.531 Y36.901
X47.556 Y37.135
X47.531 Y37.369
X47.458 Y37.592
X47.341 Y37.796
X47.184 Y37.970
X46.993 Y38.108
X46.779 Y38.204
X46.549 Y38.253
X46.314 Y38.253
G0 Z3.000
G0  X15.834 Y35.713
G0  Z3.000
G01 F400 Z0
G01 F400 Z-0.100
G01F400X15.604 Y35.664
X15.389 Y35.569
X15.199 Y35.430
X15.042 Y35.256
X14.924 Y35.052
X14.852 Y34.828
X14.827 Y34.595
X14.852 Y34.361
X14.924 Y34.138
X15.042 Y33.934
X15.199 Y33.759
X15.389 Y33.621
X15.406 Y33.614
X14.232 Y22.646
X11.497 Y22.665
X11.369 Y23.060
X11.161 Y23.421
X10.882 Y23.730
X10.546 Y23.975
X10.166 Y24.144
X9.758 Y24.230
X9.342 Y24.230
X8.935 Y24.144
X8.555 Y23.975
X8.218 Y23.730
X7.940 Y23.421
X7.732 Y23.060
X7.603 Y22.664
X7.560 Y22.250
X7.603 Y21.837
X7.732 Y21.441
X7.940 Y21.080
X8.218 Y20.771
X8.555 Y20.526
X8.935 Y20.357
X9.342 Y20.271
X9.758 Y20.271
X10.166 Y20.357
X10.546 Y20.526
X10.882 Y20.771
X11.161 Y21.080
X11.369 Y21.441
X11.479 Y21.778
X14.598 Y21.757
X14.677 Y21.757
X14.768 Y21.776
X14.853 Y21.814
X14.929 Y21.868
X14.991 Y21.938
X15.038 Y22.018
X15.066 Y22.107
X16.288 Y33.523
X16.299 Y33.526
X16.513 Y33.621
X16.704 Y33.759
X16.861 Y33.934
X16.978 Y34.138
X17.051 Y34.361
X17.076 Y34.595
X17.051 Y34.828
X16.978 Y35.052
X16.861 Y35.256
X16.704 Y35.430
X16.513 Y35.569
X16.299 Y35.664
X16.069 Y35.713
X15.834 Y35.713
G0 Z3.000
G0  X31.074 Y35.713
G0  Z3.000
G01 F400 Z0
G01 F400 Z-0.100
G01F400X30.844 Y35.664
X30.629 Y35.569
X30.439 Y35.430
X30.282 Y35.256
X30.164 Y35.052
X30.091 Y34.828
X30.067 Y34.595
X30.091 Y34.361
X30.164 Y34.138
X30.282 Y33.934
X30.368 Y33.837
X30.321 Y33.816
X30.026 Y33.602
X29.783 Y33.332
X29.601 Y33.017
X29.489 Y32.671
X29.450 Y32.309
X29.489 Y31.947
X29.601 Y31.601
X29.783 Y31.286
X30.026 Y31.015
X30.321 Y30.801
X30.653 Y30.653
X31.009 Y30.578
X31.373 Y30.578
X31.729 Y30.653
X32.062 Y30.801
X32.356 Y31.015
X32.599 Y31.286
X32.782 Y31.601
X32.894 Y31.947
X32.932 Y32.309
X32.894 Y32.671
X32.782 Y33.017
X32.599 Y33.332
X32.356 Y33.602
X32.062 Y33.816
X32.014 Y33.837
X32.101 Y33.934
X32.218 Y34.138
X32.291 Y34.361
X32.316 Y34.595
X32.291 Y34.828
X32.218 Y35.052
X32.101 Y35.256
X31.944 Y35.430
X31.753 Y35.569
X31.539 Y35.664
X31.309 Y35.713
X31.074 Y35.713
G0 Z3.000
G0  X28.534 Y35.713
G0  Z3.000
G01 F400 Z0
G01 F400 Z-0.100
G01F400X28.304 Y35.664
X28.089 Y35.569
X27.899 Y35.430
X27.742 Y35.256
X27.624 Y35.052
X27.552 Y34.828
X27.527 Y34.595
X27.552 Y34.361
X27.624 Y34.138
X27.742 Y33.934
X27.899 Y33.759
X28.089 Y33.621
X28.304 Y33.526
X28.534 Y33.477
X28.769 Y33.477
X28.999 Y33.526
X29.213 Y33.621
X29.404 Y33.759
X29.561 Y33.934
X29.678 Y34.138
X29.751 Y34.361
X29.776 Y34.595
X29.751 Y34.828
X29.678 Y35.052
X29.561 Y35.256
X29.404 Y35.430
X29.213 Y35.569
X28.999 Y35.664
X28.769 Y35.713
X28.534 Y35.713
G0 Z3.000
G0  X36.154 Y35.713
G0  Z3.000
G01 F400 Z0
G01 F400 Z-0.100
G01F400X35.924 Y35.664
X35.709 Y35.569
X35.519 Y35.430
X35.362 Y35.256
X35.244 Y35.052
X35.172 Y34.828
X35.147 Y34.595
X35.172 Y34.361
X35.244 Y34.138
X35.362 Y33.934
X35.519 Y33.759
X35.709 Y33.621
X35.924 Y33.526
X36.154 Y33.477
X36.389 Y33.477
X36.619 Y33.526
X36.833 Y33.621
X37.023 Y33.759
X37.181 Y33.934
X37.298 Y34.138
X37.371 Y34.361
X37.395 Y34.595
X37.371 Y34.828
X37.298 Y35.052
X37.181 Y35.256
X37.023 Y35.430
X36.833 Y35.569
X36.619 Y35.664
X36.389 Y35.713
X36.154 Y35.713
G0 Z3.000
G0  X33.614 Y35.713
G0  Z3.000
G01 F400 Z0
G01 F400 Z-0.100
G01F400X33.384 Y35.664
X33.169 Y35.569
X32.979 Y35.430
X32.822 Y35.256
X32.704 Y35.052
X32.632 Y34.828
X32.607 Y34.595
X32.632 Y34.361
X32.704 Y34.138
X32.822 Y33.934
X32.979 Y33.759
X33.169 Y33.621
X33.384 Y33.526
X33.614 Y33.477
X33.849 Y33.477
X34.079 Y33.526
X34.293 Y33.621
X34.483 Y33.759
X34.641 Y33.934
X34.758 Y34.138
X34.831 Y34.361
X34.855 Y34.595
X34.831 Y34.828
X34.758 Y35.052
X34.641 Y35.256
X34.483 Y35.430
X34.293 Y35.569
X34.079 Y35.664
X33.849 Y35.713
X33.614 Y35.713
G0 Z3.000
G0  X20.939 Y35.713
G0  Z3.000
G01 F400 Z0
G01 F400 Z-0.100
G01F400X20.709 Y35.664
X20.495 Y35.569
X20.304 Y35.430
X20.147 Y35.256
X20.030 Y35.052
X19.957 Y34.828
X19.932 Y34.595
X19.957 Y34.361
X20.030 Y34.138
X20.147 Y33.934
X20.304 Y33.759
X20.495 Y33.621
X20.709 Y33.526
X20.939 Y33.477
X21.174 Y33.477
X21.404 Y33.526
X21.619 Y33.621
X21.809 Y33.759
X21.966 Y33.934
X22.084 Y34.138
X22.156 Y34.361
X22.181 Y34.595
X22.156 Y34.828
X22.084 Y35.052
X21.966 Y35.256
X21.809 Y35.430
X21.619 Y35.569
X21.404 Y35.664
X21.174 Y35.713
X20.939 Y35.713
G0 Z3.000
G0  X18.374 Y35.713
G0  Z3.000
G01 F400 Z0
G01 F400 Z-0.100
G01F400X18.144 Y35.664
X17.929 Y35.569
X17.739 Y35.430
X17.582 Y35.256
X17.464 Y35.052
X17.392 Y34.828
X17.367 Y34.595
X17.392 Y34.361
X17.464 Y34.138
X17.582 Y33.934
X17.739 Y33.759
X17.929 Y33.621
X18.144 Y33.526
X18.374 Y33.477
X18.609 Y33.477
X18.839 Y33.526
X19.053 Y33.621
X19.244 Y33.759
X19.401 Y33.934
X19.518 Y34.138
X19.591 Y34.361
X19.616 Y34.595
X19.591 Y34.828
X19.518 Y35.052
X19.401 Y35.256
X19.244 Y35.430
X19.053 Y35.569
X18.839 Y35.664
X18.609 Y35.713
X18.374 Y35.713
G0 Z3.000
G0  X25.994 Y35.713
G0  Z3.000
G01 F400 Z0
G01 F400 Z-0.100
G01F400X25.764 Y35.664
X25.549 Y35.569
X25.359 Y35.430
X25.202 Y35.256
X25.084 Y35.052
X25.012 Y34.828
X24.987 Y34.595
X25.012 Y34.361
X25.084 Y34.138
X25.202 Y33.934
X25.359 Y33.759
X25.549 Y33.621
X25.764 Y33.526
X25.994 Y33.477
X26.229 Y33.477
X26.459 Y33.526
X26.673 Y33.621
X26.864 Y33.759
X27.021 Y33.934
X27.138 Y34.138
X27.211 Y34.361
X27.236 Y34.595
X27.211 Y34.828
X27.138 Y35.052
X27.021 Y35.256
X26.864 Y35.430
X26.673 Y35.569
X26.459 Y35.664
X26.229 Y35.713
X25.994 Y35.713
G0 Z3.000
G0  X23.479 Y35.713
G0  Z3.000
G01 F400 Z0
G01 F400 Z-0.100
G01F400X23.249 Y35.664
X23.035 Y35.569
X22.844 Y35.430
X22.687 Y35.256
X22.570 Y35.052
X22.497 Y34.828
X22.472 Y34.595
X22.497 Y34.361
X22.570 Y34.138
X22.687 Y33.934
X22.844 Y33.759
X23.035 Y33.621
X23.249 Y33.526
X23.479 Y33.477
X23.714 Y33.477
X23.944 Y33.526
X24.159 Y33.621
X24.349 Y33.759
X24.506 Y33.934
X24.624 Y34.138
X24.696 Y34.361
X24.721 Y34.595
X24.696 Y34.828
X24.624 Y35.052
X24.506 Y35.256
X24.349 Y35.430
X24.159 Y35.569
X23.944 Y35.664
X23.714 Y35.713
X23.479 Y35.713
G0 Z3.000
G0  X51.394 Y35.713
G0  Z3.000
G01 F400 Z0
G01 F400 Z-0.100
G01F400X51.164 Y35.664
X50.949 Y35.569
X50.759 Y35.430
X50.602 Y35.256
X50.484 Y35.052
X50.412 Y34.828
X50.387 Y34.595
X50.412 Y34.361
X50.484 Y34.138
X50.602 Y33.934
X50.759 Y33.759
X50.949 Y33.621
X51.164 Y33.526
X51.394 Y33.477
X51.629 Y33.477
X51.859 Y33.526
X52.073 Y33.621
X52.264 Y33.759
X52.421 Y33.934
X52.538 Y34.138
X52.611 Y34.361
X52.636 Y34.595
X52.611 Y34.828
X52.538 Y35.052
X52.421 Y35.256
X52.264 Y35.430
X52.073 Y35.569
X51.859 Y35.664
X51.629 Y35.713
X51.394 Y35.713
G0 Z3.000
G0  X48.854 Y35.713
G0  Z3.000
G01 F400 Z0
G01 F400 Z-0.100
G01F400X48.624 Y35.664
X48.409 Y35.569
X48.219 Y35.430
X48.062 Y35.256
X47.944 Y35.052
X47.872 Y34.828
X47.847 Y34.595
X47.872 Y34.361
X47.944 Y34.138
X48.062 Y33.934
X48.148 Y33.837
X48.101 Y33.816
X47.806 Y33.602
X47.563 Y33.332
X47.381 Y33.017
X47.269 Y32.671
X47.230 Y32.309
X47.269 Y31.947
X47.381 Y31.601
X47.563 Y31.286
X47.806 Y31.015
X48.101 Y30.801
X48.433 Y30.653
X48.789 Y30.578
X49.153 Y30.578
X49.509 Y30.653
X49.842 Y30.801
X50.136 Y31.015
X50.380 Y31.286
X50.562 Y31.601
X50.674 Y31.947
X50.712 Y32.309
X50.674 Y32.671
X50.562 Y33.017
X50.380 Y33.332
X50.136 Y33.602
X49.842 Y33.816
X49.794 Y33.837
X49.881 Y33.934
X49.998 Y34.138
X50.071 Y34.361
X50.096 Y34.595
X50.071 Y34.828
X49.998 Y35.052
X49.881 Y35.256
X49.724 Y35.430
X49.533 Y35.569
X49.319 Y35.664
X49.089 Y35.713
X48.854 Y35.713
G0 Z3.000
G0  X56.474 Y35.713
G0  Z3.000
G01 F400 Z0
G01 F400 Z-0.100
G01F400X56.244 Y35.664
X56.029 Y35.569
X55.839 Y35.430
X55.682 Y35.256
X55.564 Y35.052
X55.492 Y34.828
X55.467 Y34.595
X55.492 Y34.361
X55.564 Y34.138
X55.682 Y33.934
X55.839 Y33.759
X56.029 Y33.621
X56.244 Y33.526
X56.474 Y33.477
X56.709 Y33.477
X56.939 Y33.526
X57.153 Y33.621
X57.344 Y33.759
X57.501 Y33.934
X57.618 Y34.138
X57.691 Y34.361
X57.716 Y34.595
X57.691 Y34.828
X57.618 Y35.052
X57.501 Y35.256
X57.344 Y35.430
X57.153 Y35.569
X56.939 Y35.664
X56.709 Y35.713
X56.474 Y35.713
G0 Z3.000
G0  X53.934 Y35.713
G0  Z3.000
G01 F400 Z0
G01 F400 Z-0.100
G01F400X53.704 Y35.664
X53.489 Y35.569
X53.299 Y35.430
X53.142 Y35.256
X53.024 Y35.052
X52.952 Y34.828
X52.927 Y34.595
X52.952 Y34.361
X53.024 Y34.138
X53.142 Y33.934
X53.299 Y33.759
X53.489 Y33.621
X53.704 Y33.526
X53.934 Y33.477
X54.169 Y33.477
X54.399 Y33.526
X54.613 Y33.621
X54.803 Y33.759
X54.961 Y33.934
X55.078 Y34.138
X55.151 Y34.361
X55.175 Y34.595
X55.151 Y34.828
X55.078 Y35.052
X54.961 Y35.256
X54.803 Y35.430
X54.613 Y35.569
X54.399 Y35.664
X54.169 Y35.713
X53.934 Y35.713
G0 Z3.000
G0  X41.259 Y35.713
G0  Z3.000
G01 F400 Z0
G01 F400 Z-0.100
G01F400X41.029 Y35.664
X40.815 Y35.569
X40.624 Y35.430
X40.467 Y35.256
X40.349 Y35.052
X40.277 Y34.828
X40.252 Y34.595
X40.277 Y34.361
X40.349 Y34.138
X40.467 Y33.934
X40.624 Y33.759
X40.815 Y33.621
X41.029 Y33.526
X41.259 Y33.477
X41.494 Y33.477
X41.724 Y33.526
X41.939 Y33.621
X42.129 Y33.759
X42.286 Y33.934
X42.404 Y34.138
X42.476 Y34.361
X42.501 Y34.595
X42.476 Y34.828
X42.404 Y35.052
X42.286 Y35.256
X42.129 Y35.430
X41.939 Y35.569
X41.724 Y35.664
X41.494 Y35.713
X41.259 Y35.713
G0 Z3.000
G0  X38.694 Y35.713
G0  Z3.000
G01 F400 Z0
G01 F400 Z-0.100
G01F400X38.464 Y35.664
X38.249 Y35.569
X38.059 Y35.430
X37.902 Y35.256
X37.784 Y35.052
X37.712 Y34.828
X37.687 Y34.595
X37.712 Y34.361
X37.784 Y34.138
X37.902 Y33.934
X38.059 Y33.759
X38.249 Y33.621
X38.464 Y33.526
X38.694 Y33.477
X38.929 Y33.477
X39.159 Y33.526
X39.373 Y33.621
X39.564 Y33.759
X39.721 Y33.934
X39.838 Y34.138
X39.911 Y34.361
X39.936 Y34.595
X39.911 Y34.828
X39.838 Y35.052
X39.721 Y35.256
X39.564 Y35.430
X39.373 Y35.569
X39.159 Y35.664
X38.929 Y35.713
X38.694 Y35.713
G0 Z3.000
G0  X46.314 Y35.713
G0  Z3.000
G01 F400 Z0
G01 F400 Z-0.100
G01F400X46.084 Y35.664
X45.869 Y35.569
X45.679 Y35.430
X45.522 Y35.256
X45.404 Y35.052
X45.332 Y34.828
X45.307 Y34.595
X45.332 Y34.361
X45.404 Y34.138
X45.522 Y33.934
X45.679 Y33.759
X45.869 Y33.621
X46.084 Y33.526
X46.314 Y33.477
X46.549 Y33.477
X46.779 Y33.526
X46.993 Y33.621
X47.184 Y33.759
X47.341 Y33.934
X47.458 Y34.138
X47.531 Y34.361
X47.556 Y34.595
X47.531 Y34.828
X47.458 Y35.052
X47.341 Y35.256
X47.184 Y35.430
X46.993 Y35.569
X46.779 Y35.664
X46.549 Y35.713
X46.314 Y35.713
G0 Z3.000
G0  X43.774 Y35.713
G0  Z3.000
G01 F400 Z0
G01 F400 Z-0.100
G01F400X43.544 Y35.664
X43.329 Y35.569
X43.139 Y35.430
X42.982 Y35.256
X42.864 Y35.052
X42.791 Y34.828
X42.767 Y34.595
X42.791 Y34.361
X42.864 Y34.138
X42.982 Y33.934
X43.139 Y33.759
X43.329 Y33.621
X43.544 Y33.526
X43.774 Y33.477
X44.009 Y33.477
X44.239 Y33.526
X44.453 Y33.621
X44.644 Y33.759
X44.801 Y33.934
X44.918 Y34.138
X44.991 Y34.361
X45.016 Y34.595
X44.991 Y34.828
X44.918 Y35.052
X44.801 Y35.256
X44.644 Y35.430
X44.453 Y35.569
X44.239 Y35.664
X44.009 Y35.713
X43.774 Y35.713
G0 Z3.000
G0  X61.554 Y35.713
G0  Z3.000
G01 F400 Z0
G01 F400 Z-0.100
G01F400X61.324 Y35.664
X61.109 Y35.569
X60.919 Y35.430
X60.762 Y35.256
X60.644 Y35.052
X60.572 Y34.828
X60.547 Y34.595
X60.572 Y34.361
X60.644 Y34.138
X60.762 Y33.934
X60.919 Y33.759
X61.109 Y33.621
X61.324 Y33.526
X61.554 Y33.477
X61.789 Y33.477
X62.019 Y33.526
X62.233 Y33.621
X62.424 Y33.759
X62.581 Y33.934
X62.698 Y34.138
X62.771 Y34.361
X62.796 Y34.595
X62.771 Y34.828
X62.698 Y35.052
X62.581 Y35.256
X62.424 Y35.430
X62.233 Y35.569
X62.019 Y35.664
X61.789 Y35.713
X61.554 Y35.713
G0 Z3.000
G0  X59.014 Y35.713
G0  Z3.000
G01 F400 Z0
G01 F400 Z-0.100
G01F400X58.784 Y35.664
X58.569 Y35.569
X58.379 Y35.430
X58.222 Y35.256
X58.104 Y35.052
X58.032 Y34.828
X58.007 Y34.595
X58.032 Y34.361
X58.104 Y34.138
X58.222 Y33.934
X58.379 Y33.759
X58.569 Y33.621
X58.784 Y33.526
X59.014 Y33.477
X59.249 Y33.477
X59.479 Y33.526
X59.693 Y33.621
X59.884 Y33.759
X60.041 Y33.934
X60.158 Y34.138
X60.231 Y34.361
X60.256 Y34.595
X60.231 Y34.828
X60.158 Y35.052
X60.041 Y35.256
X59.884 Y35.430
X59.693 Y35.569
X59.479 Y35.664
X59.249 Y35.713
X59.014 Y35.713
G0 Z3.000
G0  X47.543 Y28.355
G0  Z3.000
G01 F400 Z0
G01 F400 Z-0.100
G01F400X47.332 Y28.310
X47.136 Y28.222
X46.961 Y28.096
X46.817 Y27.936
X46.710 Y27.749
X46.643 Y27.545
X46.621 Y27.330
X46.643 Y27.116
X46.710 Y26.912
X46.817 Y26.725
X46.961 Y26.565
X47.136 Y26.439
X47.332 Y26.351
X47.543 Y26.306
X47.758 Y26.306
X47.969 Y26.351
X48.165 Y26.439
X48.339 Y26.565
X48.483 Y26.725
X48.591 Y26.912
X48.658 Y27.116
X48.680 Y27.330
X48.658 Y27.545
X48.591 Y27.749
X48.483 Y27.936
X48.339 Y28.096
X48.165 Y28.222
X47.969 Y28.310
X47.758 Y28.355
X47.543 Y28.355
G0 Z3.000
G0  X45.003 Y28.355
G0  Z3.000
G01 F400 Z0
G01 F400 Z-0.100
G01F400X44.792 Y28.310
X44.596 Y28.222
X44.421 Y28.096
X44.277 Y27.936
X44.170 Y27.749
X44.103 Y27.545
X44.081 Y27.330
X44.103 Y27.116
X44.170 Y26.912
X44.277 Y26.725
X44.421 Y26.565
X44.596 Y26.439
X44.792 Y26.351
X45.003 Y26.306
X45.218 Y26.306
X45.429 Y26.351
X45.625 Y26.439
X45.799 Y26.565
X45.944 Y26.725
X46.051 Y26.912
X46.118 Y27.116
X46.140 Y27.330
X46.118 Y27.545
X46.051 Y27.749
X45.944 Y27.936
X45.799 Y28.096
X45.625 Y28.222
X45.429 Y28.310
X45.218 Y28.355
X45.003 Y28.355
G0 Z3.000
G0  X32.303 Y28.355
G0  Z3.000
G01 F400 Z0
G01 F400 Z-0.100
G01F400X32.092 Y28.310
X31.896 Y28.222
X31.721 Y28.096
X31.577 Y27.936
X31.470 Y27.749
X31.403 Y27.545
X31.381 Y27.330
X31.403 Y27.116
X31.470 Y26.912
X31.577 Y26.725
X31.721 Y26.565
X31.896 Y26.439
X32.092 Y26.351
X32.303 Y26.306
X32.518 Y26.306
X32.729 Y26.351
X32.925 Y26.439
X33.099 Y26.565
X33.244 Y26.725
X33.351 Y26.912
X33.418 Y27.116
X33.440 Y27.330
X33.418 Y27.545
X33.351 Y27.749
X33.244 Y27.936
X33.099 Y28.096
X32.925 Y28.222
X32.729 Y28.310
X32.518 Y28.355
X32.303 Y28.355
G0 Z3.000
G0  X29.763 Y28.355
G0  Z3.000
G01 F400 Z0
G01 F400 Z-0.100
G01F400X29.552 Y28.310
X29.356 Y28.222
X29.181 Y28.096
X29.037 Y27.936
X28.930 Y27.749
X28.863 Y27.545
X28.841 Y27.330
X28.863 Y27.116
X28.930 Y26.912
X29.037 Y26.725
X29.181 Y26.565
X29.356 Y26.439
X29.552 Y26.351
X29.763 Y26.306
X29.978 Y26.306
X30.189 Y26.351
X30.385 Y26.439
X30.559 Y26.565
X30.704 Y26.725
X30.811 Y26.912
X30.878 Y27.116
X30.900 Y27.330
X30.878 Y27.545
X30.811 Y27.749
X30.704 Y27.936
X30.559 Y28.096
X30.385 Y28.222
X30.189 Y28.310
X29.978 Y28.355
X29.763 Y28.355
G0 Z3.000
G0  X37.383 Y28.355
G0  Z3.000
G01 F400 Z0
G01 F400 Z-0.100
G01F400X37.172 Y28.310
X36.976 Y28.222
X36.801 Y28.096
X36.657 Y27.936
X36.550 Y27.749
X36.483 Y27.545
X36.461 Y27.330
X36.483 Y27.116
X36.550 Y26.912
X36.657 Y26.725
X36.801 Y26.565
X36.976 Y26.439
X37.172 Y26.351
X37.383 Y26.306
X37.598 Y26.306
X37.809 Y26.351
X38.005 Y26.439
X38.179 Y26.565
X38.324 Y26.725
X38.431 Y26.912
X38.498 Y27.116
X38.520 Y27.330
X38.498 Y27.545
X38.431 Y27.749
X38.324 Y27.936
X38.179 Y28.096
X38.005 Y28.222
X37.809 Y28.310
X37.598 Y28.355
X37.383 Y28.355
G0 Z3.000
G0  X34.843 Y28.355
G0  Z3.000
G01 F400 Z0
G01 F400 Z-0.100
G01F400X34.632 Y28.310
X34.436 Y28.222
X34.261 Y28.096
X34.117 Y27.936
X34.010 Y27.749
X33.943 Y27.545
X33.921 Y27.330
X33.943 Y27.116
X34.010 Y26.912
X34.117 Y26.725
X34.261 Y26.565
X34.436 Y26.439
X34.632 Y26.351
X34.843 Y26.306
X35.058 Y26.306
X35.269 Y26.351
X35.465 Y26.439
X35.639 Y26.565
X35.784 Y26.725
X35.891 Y26.912
X35.958 Y27.116
X35.980 Y27.330
X35.958 Y27.545
X35.891 Y27.749
X35.784 Y27.936
X35.639 Y28.096
X35.465 Y28.222
X35.269 Y28.310
X35.058 Y28.355
X34.843 Y28.355
G0 Z3.000
G0  X42.463 Y28.355
G0  Z3.000
G01 F400 Z0
G01 F400 Z-0.100
G01F400X42.252 Y28.310
X42.056 Y28.222
X41.881 Y28.096
X41.737 Y27.936
X41.630 Y27.749
X41.563 Y27.545
X41.541 Y27.330
X41.563 Y27.116
X41.630 Y26.912
X41.737 Y26.725
X41.881 Y26.565
X42.056 Y26.439
X42.252 Y26.351
X42.463 Y26.306
X42.678 Y26.306
X42.889 Y26.351
X43.085 Y26.439
X43.259 Y26.565
X43.404 Y26.725
X43.511 Y26.912
X43.578 Y27.116
X43.600 Y27.330
X43.578 Y27.545
X43.511 Y27.749
X43.404 Y27.936
X43.259 Y28.096
X43.085 Y28.222
X42.889 Y28.310
X42.678 Y28.355
X42.463 Y28.355
G0 Z3.000
G0  X39.923 Y28.355
G0  Z3.000
G01 F400 Z0
G01 F400 Z-0.100
G01F400X39.712 Y28.310
X39.516 Y28.222
X39.341 Y28.096
X39.197 Y27.936
X39.090 Y27.749
X39.023 Y27.545
X39.001 Y27.330
X39.023 Y27.116
X39.090 Y26.912
X39.197 Y26.725
X39.341 Y26.565
X39.516 Y26.439
X39.712 Y26.351
X39.923 Y26.306
X40.138 Y26.306
X40.349 Y26.351
X40.545 Y26.439
X40.719 Y26.565
X40.864 Y26.725
X40.971 Y26.912
X41.038 Y27.116
X41.060 Y27.330
X41.038 Y27.545
X40.971 Y27.749
X40.864 Y27.936
X40.719 Y28.096
X40.545 Y28.222
X40.349 Y28.310
X40.138 Y28.355
X39.923 Y28.355
G0 Z3.000
G0  X22.052 Y27.949
G0  Z3.000
G01 F400 Z0
G01 F400 Z-0.100
G01F400X21.664 Y27.866
X21.301 Y27.705
X20.980 Y27.472
X20.714 Y27.177
X20.516 Y26.833
X20.393 Y26.455
X20.352 Y26.060
X20.393 Y25.666
X20.516 Y25.288
X20.714 Y24.944
X20.980 Y24.649
X21.301 Y24.416
X21.664 Y24.255
X22.052 Y24.172
X22.449 Y24.172
X22.837 Y24.255
X23.200 Y24.416
X23.521 Y24.649
X23.787 Y24.944
X23.985 Y25.288
X24.108 Y25.666
X24.149 Y26.060
X24.108 Y26.455
X23.985 Y26.833
X23.787 Y27.177
X23.521 Y27.472
X23.200 Y27.705
X22.837 Y27.866
X22.449 Y27.949
X22.052 Y27.949
G0 Z3.000
G0  X52.796 Y26.148
G0  Z3.000
G01 F400 Z0
G01 F400 Z-0.100
G01F400X52.428 Y26.069
X52.085 Y25.916
X51.781 Y25.695
X51.529 Y25.416
X51.341 Y25.090
X51.225 Y24.733
X51.186 Y24.359
X51.225 Y23.985
X51.341 Y23.627
X51.529 Y23.301
X51.781 Y23.022
X52.085 Y22.801
X52.428 Y22.648
X52.796 Y22.570
X53.172 Y22.570
X53.540 Y22.648
X53.884 Y22.801
X54.188 Y23.022
X54.440 Y23.301
X54.628 Y23.627
X54.744 Y23.985
X54.783 Y24.359
X54.744 Y24.733
X54.628 Y25.090
X54.440 Y25.416
X54.188 Y25.695
X53.884 Y25.916
X53.540 Y26.069
X53.172 Y26.148
X52.796 Y26.148
G0 Z3.000
G0  X52.796 Y13.016
G0  Z3.000
G01 F400 Z0
G01 F400 Z-0.100
G01F400X52.428 Y12.938
X52.085 Y12.785
X51.781 Y12.564
X51.529 Y12.284
X51.341 Y11.958
X51.225 Y11.601
X51.186 Y11.227
X51.225 Y10.853
X51.341 Y10.495
X51.529 Y10.170
X51.781 Y9.890
X52.085 Y9.669
X52.428 Y9.516
X52.796 Y9.438
X53.172 Y9.438
X53.540 Y9.516
X53.884 Y9.669
X54.188 Y9.890
X54.440 Y10.170
X54.628 Y10.495
X54.744 Y10.853
X54.783 Y11.227
X54.744 Y11.601
X54.628 Y11.958
X54.440 Y12.284
X54.188 Y12.564
X53.884 Y12.785
X53.540 Y12.938
X53.172 Y13.016
X52.796 Y13.016
G0 Z3.000
G0  X22.052 Y11.439
G0  Z3.000
G01 F400 Z0
G01 F400 Z-0.100
G01F400X21.664 Y11.356
X21.301 Y11.195
X20.980 Y10.962
X20.714 Y10.667
X20.516 Y10.323
X20.393 Y9.945
X20.352 Y9.550
X20.393 Y9.156
X20.516 Y8.778
X20.714 Y8.434
X20.980 Y8.139
X21.301 Y7.906
X21.664 Y7.745
X22.052 Y7.662
X22.449 Y7.662
X22.837 Y7.745
X23.200 Y7.906
X23.521 Y8.139
X23.787 Y8.434
X23.985 Y8.778
X24.108 Y9.156
X24.149 Y9.550
X24.108 Y9.945
X23.985 Y10.323
X23.787 Y10.667
X23.521 Y10.962
X23.200 Y11.195
X22.837 Y11.356
X22.449 Y11.439
X22.052 Y11.439
G0 Z3.000
G0  X13.410 Y56.491
G0  Z3.000
G01 F400 Z0
G01 F400 Z-0.100
G01F400X13.410 Y54.050
X15.851 Y54.050
X15.851 Y56.491
X13.410 Y56.491
G0 Z3.000
G0  X24.684 Y55.854
G0  Z3.000
G01 F400 Z0
G01 F400 Z-0.100
G01F400X24.574 Y55.831
X24.472 Y55.786
X24.381 Y55.720
X24.306 Y55.636
X24.250 Y55.539
X24.215 Y55.433
X24.205 Y55.332
X24.256 Y50.126
X24.266 Y50.028
X24.301 Y49.922
X24.357 Y49.825
X24.432 Y49.741
X24.523 Y49.675
X24.625 Y49.630
X24.735 Y49.607
X32.035 Y49.607
X32.751 Y48.230
X32.638 Y48.035
X32.561 Y47.797
X32.535 Y47.549
X32.561 Y47.300
X32.638 Y47.062
X32.763 Y46.846
X32.931 Y46.660
X33.133 Y46.513
X33.361 Y46.411
X33.606 Y46.359
X33.856 Y46.359
X34.101 Y46.411
X34.330 Y46.513
X34.532 Y46.660
X34.699 Y46.846
X34.824 Y47.062
X34.901 Y47.300
X34.928 Y47.549
X34.901 Y47.797
X34.824 Y48.035
X34.699 Y48.252
X34.532 Y48.438
X34.330 Y48.585
X34.101 Y48.687
X33.856 Y48.739
X33.690 Y48.739
X32.840 Y50.374
X32.793 Y50.455
X32.718 Y50.538
X32.628 Y50.604
X32.525 Y50.650
X32.416 Y50.673
X25.320 Y50.673
X25.280 Y54.788
X55.226 Y54.788
X62.356 Y52.300
X62.356 Y45.073
X62.366 Y44.974
X62.401 Y44.867
X62.457 Y44.770
X62.532 Y44.687
X62.623 Y44.621
X62.725 Y44.575
X62.835 Y44.552
X72.490 Y44.552
X72.490 Y30.788
X65.423 Y34.564
X65.426 Y34.595
X65.399 Y34.847
X65.321 Y35.089
X65.194 Y35.309
X65.024 Y35.498
X64.819 Y35.647
X64.587 Y35.750
X64.338 Y35.803
X64.084 Y35.803
X63.836 Y35.750
X63.604 Y35.647
X63.398 Y35.498
X63.228 Y35.309
X63.101 Y35.089
X63.023 Y34.847
X62.996 Y34.595
X63.023 Y34.342
X63.101 Y34.101
X63.228 Y33.881
X63.398 Y33.692
X63.604 Y33.543
X63.836 Y33.439
X64.084 Y33.387
X64.338 Y33.387
X64.587 Y33.439
X64.819 Y33.543
X64.923 Y33.619
X72.771 Y29.425
X72.859 Y29.386
X72.969 Y29.363
X73.081 Y29.363
X73.191 Y29.386
X73.293 Y29.431
X73.384 Y29.497
X73.459 Y29.581
X73.515 Y29.678
X73.549 Y29.784
X73.560 Y29.884
X73.560 Y45.097
X73.549 Y45.196
X73.515 Y45.303
X73.459 Y45.400
X73.384 Y45.483
X73.293 Y45.549
X73.191 Y45.595
X73.081 Y45.618
X63.425 Y45.618
X63.425 Y52.692
X63.415 Y52.791
X63.380 Y52.898
X63.324 Y52.995
X63.249 Y53.078
X63.158 Y53.144
X63.069 Y53.183
X55.477 Y55.833
X55.377 Y55.854
X24.684 Y55.854
G0 Z3.000
G0  X14.503 Y53.946
G0  Z3.000
G01 F400 Z0
G01 F400 Z-0.100
G01F400X14.253 Y53.893
X14.020 Y53.789
X13.813 Y53.639
X13.642 Y53.449
X13.514 Y53.227
X13.435 Y52.984
X13.409 Y52.730
X13.435 Y52.476
X13.514 Y52.233
X13.642 Y52.012
X13.813 Y51.822
X14.020 Y51.672
X14.253 Y51.568
X14.503 Y51.515
X14.758 Y51.515
X15.008 Y51.568
X15.241 Y51.672
X15.448 Y51.822
X15.619 Y52.012
X15.710 Y52.170
X19.150 Y52.149
X19.150 Y45.073
X19.161 Y44.974
X19.195 Y44.867
X19.251 Y44.770
X19.326 Y44.687
X19.417 Y44.621
X19.519 Y44.575
X19.629 Y44.552
X35.032 Y44.552
X35.142 Y44.575
X35.244 Y44.621
X35.334 Y44.687
X35.410 Y44.770
X35.456 Y44.851
X36.232 Y46.359
X36.232 Y46.359
X37.010 Y44.851
X37.056 Y44.770
X37.132 Y44.687
X37.223 Y44.621
X37.325 Y44.575
X37.416 Y44.556
X52.248 Y42.076
X53.278 Y38.067
X53.238 Y38.038
X53.068 Y37.849
X52.941 Y37.629
X52.863 Y37.387
X52.836 Y37.135
X52.863 Y36.882
X52.941 Y36.641
X53.068 Y36.421
X53.238 Y36.232
X53.444 Y36.083
X53.676 Y35.979
X53.924 Y35.927
X54.178 Y35.927
X54.427 Y35.979
X54.659 Y36.083
X54.864 Y36.232
X55.034 Y36.421
X55.161 Y36.641
X55.239 Y36.882
X55.266 Y37.135
X55.239 Y37.387
X55.161 Y37.629
X55.034 Y37.849
X54.864 Y38.038
X54.659 Y38.187
X54.427 Y38.290
X54.341 Y38.308
X53.199 Y42.673
X53.169 Y42.763
X53.113 Y42.860
X53.038 Y42.944
X52.948 Y43.009
X52.845 Y43.055
X52.754 Y43.074
X37.845 Y45.567
X37.212 Y46.815
X37.239 Y46.846
X37.364 Y47.062
X37.442 Y47.300
X37.468 Y47.549
X37.442 Y47.797
X37.364 Y48.035
X37.239 Y48.252
X37.072 Y48.438
X36.870 Y48.585
X36.641 Y48.687
X36.396 Y48.739
X36.146 Y48.739
X35.901 Y48.687
X35.673 Y48.585
X35.471 Y48.438
X35.303 Y48.252
X35.178 Y48.035
X35.101 Y47.797
X35.075 Y47.549
X35.101 Y47.300
X35.178 Y47.062
X35.291 Y46.867
X34.649 Y45.618
X20.220 Y45.618
X20.220 Y52.692
X20.209 Y52.791
X20.175 Y52.898
X20.119 Y52.995
X20.044 Y53.078
X19.953 Y53.144
X19.851 Y53.190
X19.742 Y53.213
X15.742 Y53.236
X15.619 Y53.449
X15.448 Y53.639
X15.241 Y53.789
X15.008 Y53.893
X14.758 Y53.946
X14.503 Y53.946
G0 Z3.000
G0  X14.503 Y51.406
G0  Z3.000
G01 F400 Z0
G01 F400 Z-0.100
G01F400X14.253 Y51.352
X14.020 Y51.249
X13.813 Y51.099
X13.642 Y50.909
X13.514 Y50.687
X13.435 Y50.444
X13.409 Y50.190
X13.435 Y49.936
X13.514 Y49.693
X13.642 Y49.472
X13.813 Y49.282
X14.020 Y49.132
X14.094 Y49.099
X14.096 Y42.533
X14.106 Y42.434
X14.141 Y42.327
X14.197 Y42.230
X14.272 Y42.147
X14.363 Y42.081
X14.465 Y42.035
X14.564 Y42.014
X42.503 Y39.497
X47.283 Y39.497
X48.029 Y37.894
X47.988 Y37.849
X47.861 Y37.629
X47.783 Y37.387
X47.756 Y37.135
X47.783 Y36.882
X47.861 Y36.641
X47.988 Y36.421
X48.158 Y36.232
X48.364 Y36.083
X48.596 Y35.979
X48.844 Y35.927
X49.098 Y35.927
X49.347 Y35.979
X49.579 Y36.083
X49.784 Y36.232
X49.954 Y36.421
X50.081 Y36.641
X50.159 Y36.882
X50.186 Y37.135
X50.159 Y37.387
X50.081 Y37.629
X49.954 Y37.849
X49.784 Y38.038
X49.579 Y38.187
X49.347 Y38.290
X49.098 Y38.343
X49.014 Y38.343
X48.107 Y40.261
X48.059 Y40.346
X47.984 Y40.429
X47.893 Y40.495
X47.791 Y40.540
X47.681 Y40.564
X42.587 Y40.564
X15.165 Y43.034
X15.165 Y49.099
X15.241 Y49.132
X15.448 Y49.282
X15.619 Y49.472
X15.747 Y49.693
X15.825 Y49.936
X15.852 Y50.190
X15.825 Y50.444
X15.747 Y50.687
X15.619 Y50.909
X15.448 Y51.099
X15.241 Y51.249
X15.008 Y51.352
X14.758 Y51.406
X14.503 Y51.406
G0 Z3.000
G0  X43.766 Y48.739
G0  Z3.000
G01 F400 Z0
G01 F400 Z-0.100
G01F400X43.521 Y48.687
X43.293 Y48.585
X43.090 Y48.438
X42.923 Y48.252
X42.798 Y48.035
X42.721 Y47.797
X42.695 Y47.549
X42.721 Y47.300
X42.798 Y47.062
X42.923 Y46.846
X43.090 Y46.660
X43.293 Y46.513
X43.521 Y46.411
X43.766 Y46.359
X44.016 Y46.359
X44.261 Y46.411
X44.489 Y46.513
X44.692 Y46.660
X44.859 Y46.846
X44.984 Y47.062
X45.062 Y47.300
X45.088 Y47.549
X45.062 Y47.797
X44.984 Y48.035
X44.859 Y48.252
X44.692 Y48.438
X44.489 Y48.585
X44.261 Y48.687
X44.016 Y48.739
X43.766 Y48.739
G0 Z3.000
G0  X41.226 Y48.739
G0  Z3.000
G01 F400 Z0
G01 F400 Z-0.100
G01F400X40.981 Y48.687
X40.753 Y48.585
X40.550 Y48.438
X40.383 Y48.252
X40.258 Y48.035
X40.181 Y47.797
X40.155 Y47.549
X40.181 Y47.300
X40.258 Y47.062
X40.383 Y46.846
X40.550 Y46.660
X40.753 Y46.513
X40.981 Y46.411
X41.226 Y46.359
X41.476 Y46.359
X41.721 Y46.411
X41.950 Y46.513
X42.152 Y46.660
X42.319 Y46.846
X42.444 Y47.062
X42.522 Y47.300
X42.548 Y47.549
X42.522 Y47.797
X42.444 Y48.035
X42.319 Y48.252
X42.152 Y48.438
X41.950 Y48.585
X41.721 Y48.687
X41.476 Y48.739
X41.226 Y48.739
G0 Z3.000
G0  X48.846 Y48.739
G0  Z3.000
G01 F400 Z0
G01 F400 Z-0.100
G01F400X48.601 Y48.687
X48.373 Y48.585
X48.171 Y48.438
X48.003 Y48.252
X47.878 Y48.035
X47.801 Y47.797
X47.775 Y47.549
X47.801 Y47.300
X47.878 Y47.062
X48.003 Y46.846
X48.171 Y46.660
X48.373 Y46.513
X48.601 Y46.411
X48.846 Y46.359
X49.096 Y46.359
X49.341 Y46.411
X49.570 Y46.513
X49.772 Y46.660
X49.939 Y46.846
X50.064 Y47.062
X50.142 Y47.300
X50.168 Y47.549
X50.142 Y47.797
X50.064 Y48.035
X49.939 Y48.252
X49.772 Y48.438
X49.570 Y48.585
X49.341 Y48.687
X49.096 Y48.739
X48.846 Y48.739
G0 Z3.000
G0  X46.306 Y48.739
G0  Z3.000
G01 F400 Z0
G01 F400 Z-0.100
G01F400X46.061 Y48.687
X45.833 Y48.585
X45.631 Y48.438
X45.463 Y48.252
X45.338 Y48.035
X45.261 Y47.797
X45.235 Y47.549
X45.261 Y47.300
X45.338 Y47.062
X45.463 Y46.846
X45.631 Y46.660
X45.833 Y46.513
X46.061 Y46.411
X46.306 Y46.359
X46.556 Y46.359
X46.801 Y46.411
X47.029 Y46.513
X47.232 Y46.660
X47.399 Y46.846
X47.524 Y47.062
X47.602 Y47.300
X47.628 Y47.549
X47.602 Y47.797
X47.524 Y48.035
X47.399 Y48.252
X47.232 Y48.438
X47.029 Y48.585
X46.801 Y48.687
X46.556 Y48.739
X46.306 Y48.739
G0 Z3.000
G0  X38.686 Y48.739
G0  Z3.000
G01 F400 Z0
G01 F400 Z-0.100
G01F400X38.441 Y48.687
X38.213 Y48.585
X38.011 Y48.438
X37.843 Y48.252
X37.718 Y48.035
X37.641 Y47.797
X37.615 Y47.549
X37.641 Y47.300
X37.718 Y47.062
X37.843 Y46.846
X38.011 Y46.660
X38.213 Y46.513
X38.441 Y46.411
X38.686 Y46.359
X38.936 Y46.359
X39.181 Y46.411
X39.410 Y46.513
X39.612 Y46.660
X39.779 Y46.846
X39.904 Y47.062
X39.982 Y47.300
X40.008 Y47.549
X39.982 Y47.797
X39.904 Y48.035
X39.779 Y48.252
X39.612 Y48.438
X39.410 Y48.585
X39.181 Y48.687
X38.936 Y48.739
X38.686 Y48.739
G0 Z3.000
G0  X31.066 Y48.739
G0  Z3.000
G01 F400 Z0
G01 F400 Z-0.100
G01F400X30.821 Y48.687
X30.593 Y48.585
X30.391 Y48.438
X30.223 Y48.252
X30.098 Y48.035
X30.021 Y47.797
X29.995 Y47.549
X30.021 Y47.300
X30.098 Y47.062
X30.223 Y46.846
X30.391 Y46.660
X30.593 Y46.513
X30.821 Y46.411
X31.066 Y46.359
X31.316 Y46.359
X31.561 Y46.411
X31.790 Y46.513
X31.992 Y46.660
X32.159 Y46.846
X32.284 Y47.062
X32.361 Y47.300
X32.388 Y47.549
X32.361 Y47.797
X32.284 Y48.035
X32.159 Y48.252
X31.992 Y48.438
X31.790 Y48.585
X31.561 Y48.687
X31.316 Y48.739
X31.066 Y48.739
G0 Z3.000
G0  X6.980 Y40.564
G0  Z3.000
G01 F400 Z0
G01 F400 Z-0.100
G01F400X6.870 Y40.540
X6.768 Y40.495
X6.677 Y40.429
X6.602 Y40.346
X6.546 Y40.248
X6.512 Y40.142
X6.501 Y40.042
X6.501 Y27.369
X6.512 Y27.270
X6.546 Y27.163
X6.602 Y27.066
X6.677 Y26.983
X6.768 Y26.917
X6.870 Y26.871
X6.977 Y26.849
X7.454 Y26.837
X7.454 Y25.284
X9.221 Y25.284
X9.333 Y25.261
X9.768 Y25.261
X9.880 Y25.284
X11.622 Y25.284
X11.622 Y27.238
X11.632 Y27.330
X11.622 Y27.423
X11.622 Y29.427
X7.571 Y29.427
X7.571 Y39.497
X14.289 Y39.497
X15.026 Y37.912
X14.969 Y37.850
X14.841 Y37.629
X14.763 Y37.387
X14.736 Y37.135
X14.763 Y36.882
X14.841 Y36.641
X14.968 Y36.421
X15.138 Y36.232
X15.344 Y36.083
X15.576 Y35.979
X15.824 Y35.927
X16.078 Y35.927
X16.327 Y35.979
X16.559 Y36.083
X16.764 Y36.232
X16.934 Y36.421
X17.061 Y36.641
X17.139 Y36.882
X17.166 Y37.135
X17.139 Y37.387
X17.061 Y37.629
X16.934 Y37.849
X16.764 Y38.038
X16.559 Y38.187
X16.327 Y38.290
X16.078 Y38.343
X16.005 Y38.343
X15.113 Y40.261
X15.064 Y40.346
X14.989 Y40.429
X14.898 Y40.495
X14.796 Y40.540
X14.686 Y40.564
X6.980 Y40.564
G0 Z3.000
G0  X43.764 Y38.394
G0  Z3.000
G01 F400 Z0
G01 F400 Z-0.100
G01F400X43.516 Y38.341
X43.284 Y38.238
X43.078 Y38.089
X42.908 Y37.900
X42.781 Y37.680
X42.703 Y37.438
X42.676 Y37.186
X42.703 Y36.933
X42.781 Y36.692
X42.908 Y36.471
X43.078 Y36.283
X43.284 Y36.134
X43.516 Y36.030
X43.764 Y35.977
X44.018 Y35.977
X44.267 Y36.030
X44.498 Y36.134
X44.704 Y36.283
X44.874 Y36.471
X45.001 Y36.692
X45.079 Y36.933
X45.106 Y37.186
X45.079 Y37.438
X45.001 Y37.680
X44.874 Y37.900
X44.704 Y38.089
X44.498 Y38.238
X44.267 Y38.341
X44.018 Y38.394
X43.764 Y38.394
G0 Z3.000
G0  X46.304 Y38.343
G0  Z3.000
G01 F400 Z0
G01 F400 Z-0.100
G01F400X46.056 Y38.290
X45.824 Y38.187
X45.618 Y38.038
X45.448 Y37.849
X45.321 Y37.629
X45.243 Y37.387
X45.216 Y37.135
X45.243 Y36.882
X45.321 Y36.641
X45.448 Y36.421
X45.618 Y36.232
X45.824 Y36.083
X46.056 Y35.979
X46.304 Y35.927
X46.558 Y35.927
X46.807 Y35.979
X47.038 Y36.083
X47.244 Y36.232
X47.414 Y36.421
X47.541 Y36.641
X47.619 Y36.882
X47.646 Y37.135
X47.619 Y37.387
X47.541 Y37.629
X47.414 Y37.849
X47.244 Y38.038
X47.038 Y38.187
X46.807 Y38.290
X46.558 Y38.343
X46.304 Y38.343
G0 Z3.000
G0  X51.384 Y38.343
G0  Z3.000
G01 F400 Z0
G01 F400 Z-0.100
G01F400X51.136 Y38.290
X50.904 Y38.187
X50.698 Y38.038
X50.528 Y37.849
X50.401 Y37.629
X50.323 Y37.387
X50.296 Y37.135
X50.323 Y36.882
X50.401 Y36.641
X50.528 Y36.421
X50.698 Y36.232
X50.904 Y36.083
X51.136 Y35.979
X51.384 Y35.927
X51.638 Y35.927
X51.887 Y35.979
X52.119 Y36.083
X52.324 Y36.232
X52.494 Y36.421
X52.621 Y36.641
X52.699 Y36.882
X52.726 Y37.135
X52.699 Y37.387
X52.621 Y37.629
X52.494 Y37.849
X52.324 Y38.038
X52.119 Y38.187
X51.887 Y38.290
X51.638 Y38.343
X51.384 Y38.343
G0 Z3.000
G0  X36.144 Y38.343
G0  Z3.000
G01 F400 Z0
G01 F400 Z-0.100
G01F400X35.896 Y38.290
X35.664 Y38.187
X35.458 Y38.038
X35.288 Y37.849
X35.161 Y37.629
X35.083 Y37.387
X35.056 Y37.135
X35.083 Y36.882
X35.161 Y36.641
X35.288 Y36.421
X35.458 Y36.232
X35.664 Y36.083
X35.896 Y35.979
X36.144 Y35.927
X36.398 Y35.927
X36.647 Y35.979
X36.879 Y36.083
X37.084 Y36.232
X37.254 Y36.421
X37.381 Y36.641
X37.459 Y36.882
X37.486 Y37.135
X37.459 Y37.387
X37.381 Y37.629
X37.254 Y37.849
X37.084 Y38.038
X36.879 Y38.187
X36.647 Y38.290
X36.398 Y38.343
X36.144 Y38.343
G0 Z3.000
G0  X33.604 Y38.343
G0  Z3.000
G01 F400 Z0
G01 F400 Z-0.100
G01F400X33.356 Y38.290
X33.124 Y38.187
X32.918 Y38.038
X32.748 Y37.849
X32.621 Y37.629
X32.543 Y37.387
X32.516 Y37.135
X32.543 Y36.882
X32.621 Y36.641
X32.748 Y36.421
X32.918 Y36.232
X33.124 Y36.083
X33.356 Y35.979
X33.604 Y35.927
X33.858 Y35.927
X34.107 Y35.979
X34.339 Y36.083
X34.544 Y36.232
X34.714 Y36.421
X34.841 Y36.641
X34.919 Y36.882
X34.946 Y37.135
X34.919 Y37.387
X34.841 Y37.629
X34.714 Y37.849
X34.544 Y38.038
X34.339 Y38.187
X34.107 Y38.290
X33.858 Y38.343
X33.604 Y38.343
G0 Z3.000
G0  X41.224 Y38.343
G0  Z3.000
G01 F400 Z0
G01 F400 Z-0.100
G01F400X40.976 Y38.290
X40.744 Y38.187
X40.538 Y38.038
X40.368 Y37.849
X40.241 Y37.629
X40.163 Y37.387
X40.136 Y37.135
X40.163 Y36.882
X40.241 Y36.641
X40.368 Y36.421
X40.538 Y36.232
X40.744 Y36.083
X40.976 Y35.979
X41.224 Y35.927
X41.478 Y35.927
X41.727 Y35.979
X41.959 Y36.083
X42.164 Y36.232
X42.334 Y36.421
X42.461 Y36.641
X42.539 Y36.882
X42.566 Y37.135
X42.539 Y37.387
X42.461 Y37.629
X42.334 Y37.849
X42.164 Y38.038
X41.959 Y38.187
X41.727 Y38.290
X41.478 Y38.343
X41.224 Y38.343
G0 Z3.000
G0  X38.684 Y38.343
G0  Z3.000
G01 F400 Z0
G01 F400 Z-0.100
G01F400X38.436 Y38.290
X38.204 Y38.187
X37.998 Y38.038
X37.828 Y37.849
X37.701 Y37.629
X37.623 Y37.387
X37.596 Y37.135
X37.623 Y36.882
X37.701 Y36.641
X37.828 Y36.421
X37.998 Y36.232
X38.204 Y36.083
X38.436 Y35.979
X38.684 Y35.927
X38.938 Y35.927
X39.187 Y35.979
X39.419 Y36.083
X39.624 Y36.232
X39.794 Y36.421
X39.921 Y36.641
X39.999 Y36.882
X40.026 Y37.135
X39.999 Y37.387
X39.921 Y37.629
X39.794 Y37.849
X39.624 Y38.038
X39.419 Y38.187
X39.187 Y38.290
X38.938 Y38.343
X38.684 Y38.343
G0 Z3.000
G0  X64.109 Y38.343
G0  Z3.000
G01 F400 Z0
G01 F400 Z-0.100
G01F400X63.861 Y38.290
X63.629 Y38.187
X63.424 Y38.038
X63.254 Y37.849
X63.127 Y37.629
X63.048 Y37.387
X63.022 Y37.135
X63.048 Y36.882
X63.127 Y36.641
X63.254 Y36.421
X63.424 Y36.232
X63.629 Y36.083
X63.861 Y35.979
X64.109 Y35.927
X64.364 Y35.927
X64.612 Y35.979
X64.844 Y36.083
X65.049 Y36.232
X65.219 Y36.421
X65.346 Y36.641
X65.425 Y36.882
X65.451 Y37.135
X65.425 Y37.387
X65.346 Y37.629
X65.219 Y37.849
X65.049 Y38.038
X64.844 Y38.187
X64.612 Y38.290
X64.364 Y38.343
X64.109 Y38.343
G0 Z3.000
G0  X56.464 Y38.343
G0  Z3.000
G01 F400 Z0
G01 F400 Z-0.100
G01F400X56.216 Y38.290
X55.984 Y38.187
X55.778 Y38.038
X55.608 Y37.849
X55.481 Y37.629
X55.403 Y37.387
X55.376 Y37.135
X55.403 Y36.882
X55.481 Y36.641
X55.608 Y36.421
X55.778 Y36.232
X55.984 Y36.083
X56.216 Y35.979
X56.464 Y35.927
X56.718 Y35.927
X56.967 Y35.979
X57.199 Y36.083
X57.404 Y36.232
X57.574 Y36.421
X57.701 Y36.641
X57.779 Y36.882
X57.806 Y37.135
X57.779 Y37.387
X57.701 Y37.629
X57.574 Y37.849
X57.404 Y38.038
X57.199 Y38.187
X56.967 Y38.290
X56.718 Y38.343
X56.464 Y38.343
G0 Z3.000
G0  X61.544 Y38.343
G0  Z3.000
G01 F400 Z0
G01 F400 Z-0.100
G01F400X61.296 Y38.290
X61.064 Y38.187
X60.858 Y38.038
X60.688 Y37.849
X60.561 Y37.629
X60.483 Y37.387
X60.456 Y37.135
X60.483 Y36.882
X60.561 Y36.641
X60.688 Y36.421
X60.858 Y36.232
X61.064 Y36.083
X61.296 Y35.979
X61.544 Y35.927
X61.798 Y35.927
X62.047 Y35.979
X62.279 Y36.083
X62.484 Y36.232
X62.654 Y36.421
X62.781 Y36.641
X62.859 Y36.882
X62.886 Y37.135
X62.859 Y37.387
X62.781 Y37.629
X62.654 Y37.849
X62.484 Y38.038
X62.279 Y38.187
X62.047 Y38.290
X61.798 Y38.343
X61.544 Y38.343
G0 Z3.000
G0  X59.004 Y38.343
G0  Z3.000
G01 F400 Z0
G01 F400 Z-0.100
G01F400X58.756 Y38.290
X58.524 Y38.187
X58.318 Y38.038
X58.148 Y37.849
X58.021 Y37.629
X57.943 Y37.387
X57.916 Y37.135
X57.943 Y36.882
X58.021 Y36.641
X58.148 Y36.421
X58.318 Y36.232
X58.524 Y36.083
X58.756 Y35.979
X59.004 Y35.927
X59.258 Y35.927
X59.507 Y35.979
X59.739 Y36.083
X59.944 Y36.232
X60.114 Y36.421
X60.241 Y36.641
X60.319 Y36.882
X60.346 Y37.135
X60.319 Y37.387
X60.241 Y37.629
X60.114 Y37.849
X59.944 Y38.038
X59.739 Y38.187
X59.507 Y38.290
X59.258 Y38.343
X59.004 Y38.343
G0 Z3.000
G0  X25.984 Y38.343
G0  Z3.000
G01 F400 Z0
G01 F400 Z-0.100
G01F400X25.736 Y38.290
X25.504 Y38.187
X25.298 Y38.038
X25.128 Y37.849
X25.001 Y37.629
X24.923 Y37.387
X24.896 Y37.135
X24.923 Y36.882
X25.001 Y36.641
X25.128 Y36.421
X25.298 Y36.232
X25.504 Y36.083
X25.736 Y35.979
X25.984 Y35.927
X26.238 Y35.927
X26.487 Y35.979
X26.719 Y36.083
X26.924 Y36.232
X27.094 Y36.421
X27.221 Y36.641
X27.299 Y36.882
X27.326 Y37.135
X27.299 Y37.387
X27.221 Y37.629
X27.094 Y37.849
X26.924 Y38.038
X26.719 Y38.187
X26.487 Y38.290
X26.238 Y38.343
X25.984 Y38.343
G0 Z3.000
G0  X23.470 Y38.343
G0  Z3.000
G01 F400 Z0
G01 F400 Z-0.100
G01F400X23.221 Y38.290
X22.989 Y38.187
X22.784 Y38.038
X22.614 Y37.849
X22.487 Y37.629
X22.408 Y37.387
X22.382 Y37.135
X22.408 Y36.882
X22.487 Y36.641
X22.614 Y36.421
X22.784 Y36.232
X22.989 Y36.083
X23.221 Y35.979
X23.470 Y35.927
X23.724 Y35.927
X23.972 Y35.979
X24.204 Y36.083
X24.409 Y36.232
X24.579 Y36.421
X24.706 Y36.641
X24.785 Y36.882
X24.811 Y37.135
X24.785 Y37.387
X24.706 Y37.629
X24.579 Y37.849
X24.409 Y38.038
X24.204 Y38.187
X23.972 Y38.290
X23.724 Y38.343
X23.470 Y38.343
G0 Z3.000
G0  X31.064 Y38.343
G0  Z3.000
G01 F400 Z0
G01 F400 Z-0.100
G01F400X30.816 Y38.290
X30.584 Y38.187
X30.378 Y38.038
X30.208 Y37.849
X30.081 Y37.629
X30.003 Y37.387
X29.976 Y37.135
X30.003 Y36.882
X30.081 Y36.641
X30.208 Y36.421
X30.378 Y36.232
X30.584 Y36.083
X30.816 Y35.979
X31.064 Y35.927
X31.318 Y35.927
X31.567 Y35.979
X31.799 Y36.083
X32.004 Y36.232
X32.174 Y36.421
X32.301 Y36.641
X32.379 Y36.882
X32.406 Y37.135
X32.379 Y37.387
X32.301 Y37.629
X32.174 Y37.849
X32.004 Y38.038
X31.799 Y38.187
X31.567 Y38.290
X31.318 Y38.343
X31.064 Y38.343
G0 Z3.000
G0  X28.524 Y38.343
G0  Z3.000
G01 F400 Z0
G01 F400 Z-0.100
G01F400X28.276 Y38.290
X28.044 Y38.187
X27.838 Y38.038
X27.668 Y37.849
X27.541 Y37.629
X27.463 Y37.387
X27.436 Y37.135
X27.463 Y36.882
X27.541 Y36.641
X27.668 Y36.421
X27.838 Y36.232
X28.044 Y36.083
X28.276 Y35.979
X28.524 Y35.927
X28.778 Y35.927
X29.027 Y35.979
X29.259 Y36.083
X29.464 Y36.232
X29.634 Y36.421
X29.761 Y36.641
X29.839 Y36.882
X29.866 Y37.135
X29.839 Y37.387
X29.761 Y37.629
X29.634 Y37.849
