%
(test4)
(T1  D=1.5 CR=0 - ZMIN=-1.6 - flat end mill)
G90
G17
G21
G28 G91 Z0
G90

(2D Contour2)
M9
T1 M6
S5000 M3
G54
M7
G0 X-0.803 Y-42.965
Z15
Z5
G1 Z0.15 F1000
Y-42.958 Z0.104
Y-42.937 Z0.062
X-0.802 Y-42.903 Z0.029
X-0.801 Y-42.862 Z0.007
X-0.8 Y-42.815 Z0
X-0.757 Y-40.893
X-0.764 Y-40.847
X-0.784 Y-40.804
X-0.817 Y-40.771
X-0.858 Y-40.748
X-0.904 Y-40.74
G2 X-40.74 Y-0.904 I0.904 J40.74
G1 X-40.741 Y-0.858
X-40.749 Y-0.812
X-40.772 Y-0.77
X-40.806 Y-0.738
X-40.848 Y-0.717
X-40.894 Y-0.711
X-41.044 Y-0.714
X-41.091 Y-0.715 Z0.007
X-41.132 Y-0.716 Z0.029
X-41.166 Y-0.717 Z0.062
X-41.187 Y-0.718 Z0.104
X-41.194 Z0.15
X-42.965 Y0.758
X-42.958 Z0.104
X-42.937 Y0.757 Z0.062
X-42.903 Z0.029
X-42.862 Y0.756 Z0.007
X-42.815 Y0.755 Z0
X-40.894 Y0.712
X-40.848 Y0.718
X-40.805 Y0.739
X-40.772 Y0.771
X-40.749 Y0.812
X-40.741 Y0.859
X-40.74 Y0.904
G2 X40.74 Y-0.904 I40.74 J-0.904
X0.904 Y-40.74 I-40.74 J0.904
G1 X0.858 Y-40.748
X0.816 Y-40.771
X0.784 Y-40.804
X0.764 Y-40.847
X0.757 Y-40.893
X0.761 Y-41.043
X0.762 Y-41.09 Z0.007
X0.763 Y-41.131 Z0.029
Y-41.165 Z0.062
X0.764 Y-41.186 Z0.104
Y-41.193 Z0.15
G0 Z15
X-0.803 Y-42.965
Z5
G1 Z-1.45 F1000
Y-42.958 Z-1.496
Y-42.937 Z-1.538
X-0.802 Y-42.903 Z-1.571
X-0.801 Y-42.862 Z-1.593
X-0.8 Y-42.815 Z-1.6
X-0.757 Y-40.893
X-0.764 Y-40.847
X-0.784 Y-40.804
X-0.817 Y-40.771
X-0.858 Y-40.748
X-0.904 Y-40.74
G2 X-40.74 Y-0.904 I0.904 J40.74
G1 X-40.741 Y-0.858
X-40.749 Y-0.812
X-40.772 Y-0.77
X-40.806 Y-0.738
X-40.848 Y-0.717
X-40.894 Y-0.711
X-41.044 Y-0.714
X-41.091 Y-0.715 Z-1.593
X-41.132 Y-0.716 Z-1.571
X-41.166 Y-0.717 Z-1.538
X-41.187 Y-0.718 Z-1.496
X-41.194 Z-1.45
X-42.965 Y0.758
X-42.958 Z-1.496
X-42.937 Y0.757 Z-1.538
X-42.903 Z-1.571
X-42.862 Y0.756 Z-1.593
X-42.815 Y0.755 Z-1.6
X-40.894 Y0.712
X-40.848 Y0.718
X-40.805 Y0.739
X-40.772 Y0.771
X-40.749 Y0.812
X-40.741 Y0.859
X-40.74 Y0.904
G2 X40.74 Y-0.904 I40.74 J-0.904
X0.904 Y-40.74 I-40.74 J0.904
G1 X0.858 Y-40.748
X0.816 Y-40.771
X0.784 Y-40.804
X0.764 Y-40.847
X0.757 Y-40.893
X0.761 Y-41.043
X0.762 Y-41.09 Z-1.593
X0.763 Y-41.131 Z-1.571
Y-41.165 Z-1.538
X0.764 Y-41.186 Z-1.496
Y-41.193 Z-1.45
G0 Z15
M9
G28 G91 Z0
G90
G28 G91 X0 Y0
G90
M30
%
